!!!!SEGMENT: pl-cz--iii-692--001-001_volckmer-augustin--miserere-miserere.krn
!!!cenid: 17xx:1148
!!!COM: Volckmer, Augustin
!!!COM-rismID: pe30020656
!!!CDT: 1755-~1820
!!!CNT:
!!!OPR: Miserere
!!!OTL: Miserere
!!!OMV: 001
!!!PDT:
!!!AGN: Sacred
!!!SMS-siglum: PL-CZ
!!!SMS-shelfmark: III-692
!!!SMS-shelfwork: 001-001 M
!!!SMS-variant:
!!!SMS-altvar:
!!!NIFC-rismSourceID: 300001392
!!!NIFC-rismChildID: 300001392
!!!NIFC-islandoraID: pl-cz:40420
!!!URL-pdf-islandora: https://repozytorium.nifc.pl/islandora/object/pl-cz%3A40420/datastream/PDF/view
!!!URL-scan: https://polish.musicsources.pl/pl/lokalizacje/galeria/rekopisy/6989/1 @EN{Scan on Polish Music Sources Website} @PL{Skany w portalu Dziedzictwo Muzyki Polskiej w otwartym dostępie}
!!!ONB-nifc: UWAGA: części Miserere: 1. Miserere, 2. Recitativo – Amplius lava me, 3. Aria – Quoniam, 4. Aria – Asperges me, 5. Averte faciem tuam, 6. Cor mundum, 7. Duetto – Docebo iniquos, 8. Arietta – Domine labia mea, 9. Recitativo – Quoniam si voluisses, 10. Aria – Sacrificium Deo, 11. Gloria Patri, 12. Sicut erat
!!!AIN: 1 alto 1 bass 2 cor 2 oboe 1 organ 1 soprn 1 tenor 1 viola 2 violn
!!!key: E-
**kern	**dynam	**kern	**dynam	**kern	**dynam	**kern	**dynam	**kern	**text	**text	**dynam	**kern	**text	**text	**dynam	**kern	**text	**text	**dynam	**kern	**text	**text	**dynam	**kern	**dynam	**kern	**dynam	**kern	**dynam	**kern	**dynam
*	*	*group4	*	*group4	*	*group4	*	*group3	*	*	*	*group3	*	*	*	*group3	*	*	*	*group3	*	*	*	*group2	*	*group2	*	*group1	*	*group1	*
*part12	*part12	*part11	*part11	*part10	*part10	*part9	*part9	*part8	*part8	*part8	*part8	*part7	*part7	*part7	*part7	*part6	*part6	*part6	*part6	*part5	*part5	*part5	*part5	*part4	*part4	*part3	*part3	*part2	*part2	*part1	*part1
*staff12	*	*staff11	*	*staff10	*	*staff9	*	*staff8	*staff8	*staff8	*	*staff7	*staff7	*staff7	*	*staff6	*staff6	*staff6	*	*staff5	*staff5	*staff5	*	*staff4	*	*staff3	*	*staff2	*	*staff1	*
*I"Organo.	*	*I"Viola obl=	*	*I"Violino Secondo.	*	*I"Violino Primo	*	*I"Basſo	*	*	*	*I"Tenore	*	*	*	*I"Alto .	*	*	*	*I"Canto	*	*	*	*I"Cornu Secondo in Dis	*	*I"Cornu Primo. in Dis	*	*I"Oboa Seconda	*	*I"Oboa Prima .	*
*I'org	*	*I'vla obl	*	*I'vl 2	*	*I'vl 1	*	*I'B	*	*	*	*I'T	*	*	*	*I'A	*	*	*	*I'S	*	*	*	*I'cor 2	*	*I'cor 1	*	*I'ob 2	*	*I'ob 1	*
*Iorgan	*	*Iviola	*	*Ivioln	*	*Ivioln	*	*Ibass	*	*	*	*Itenor	*	*	*	*Ialto	*	*	*	*Isoprn	*	*	*	*Icor	*	*Icor	*	*Ioboe	*	*Ioboe	*
*ICklav	*	*ICstr	*	*ICstr	*	*ICstr	*	*ICvox	*	*	*	*ICvox	*	*	*	*ICvox	*	*	*	*ICvox	*	*	*	*ICbras	*	*ICbras	*	*ICww	*	*ICww	*
*clefF4	*	*clefC3	*	*clefG2	*	*clefG2	*	*clefF4	*	*	*	*clefC4	*	*	*	*clefC3	*	*	*	*clefC1	*	*	*	*clefG2	*	*clefG2	*	*clefG2	*	*clefG2	*
*	*	*	*	*	*	*	*	*	*	*	*	*	*	*	*	*	*	*	*	*	*	*	*	*ITrd5c9	*	*ITrd5c9	*	*	*	*	*
*k[e-b-a-]	*	*k[b-a-e-]	*	*k[b-e-a-]	*	*k[e-b-a-]	*	*k[a-b-e-]	*	*	*	*k[b-e-a-]	*	*	*	*k[e-a-b-]	*	*	*	*k[b-e-a-]	*	*	*	*k[b-e-a-]	*	*k[b-e-a-]	*	*k[a-e-b-]	*	*k[a-e-b-]	*
*E-:	*	*E-:	*	*E-:	*	*E-:	*	*E-:	*	*	*	*E-:	*	*	*	*E-:	*	*	*	*E-:	*	*	*	*E-:	*	*E-:	*	*E-:	*	*E-:	*
*M4/4	*	*M4/4	*	*M4/4	*	*M4/4	*	*M4/4	*	*	*	*M4/4	*	*	*	*M4/4	*	*	*	*M4/4	*	*	*	*M4/4	*	*M4/4	*	*M4/4	*	*M4/4	*
*met(c)	*	*met(c)	*	*met(c)	*	*met(c)	*	*met(c)	*	*	*	*met(c)	*	*	*	*met(c)	*	*	*	*met(c)	*	*	*	*met(c)	*	*met(c)	*	*met(c)	*	*met(c)	*
*	*	*	*	*	*	*	*	*	*	*	*	*	*	*	*	*all\right	*	*	*	*all\right	*	*	*	*	*	*	*	*	*	*	*
=1	=1	=1	=1	=1	=1	=1	=1	=1	=1	=1	=1	=1	=1	=1	=1	=1	=1	=1	=1	=1	=1	=1	=1	=1	=1	=1	=1	=1	=1	=1	=1
!LO:TX:a:i:t=Solo	!	!	!	!	!	!	!	!	!	!	!	!LO:TX:a:t=4	!	!	!	!	!	!	!	!	!	!	!	!LO:TX:a:t=4	!	!LO:TX:a:t=4	!	!LO:TX:a:t=4	!	!LO:TX:a:t=4	!
!LO:TX:a:i:t=Adagio Majestoso	!LO:DY:rj	!LO:TX:a:i:t=Adagio Majestoso	!	!LO:TX:a:i:t=Adagio Majestoso	!LO:DY:rj	!LO:TX:a:i:t=Adagio Majestoso	!LO:DY:t=f&colon;	!LO:TX:a:i:t=Adagio Majestoso	!	!	!	!LO:TX:a:i:t=Adagio Majestoso	!	!	!	!LO:TX:a:i:t=Adagio Majestoso	!	!	!	!LO:TX:a:i:t=Adagio Majestoso	!	!	!	!LO:TX:a:i:t=Adagio Majestoso	!	!LO:TX:a:i:t=Adagio Majestoso	!	!LO:TX:a:i:t=Adagio Majestoso	!	!LO:TX:a:i:t=Adagio Majestoso	!
8.E-\L	f	8.B-/L	.	8.G/L	f	8.e-/L	f	00r	.	.	.	00r	.	.	.	00r	.	.	.	00r	.	.	.	1r	.	00r	.	00r	.	00r	.
16E-\K	.	16B-/K	.	16G/K	.	16e-/K	.	.	.	.	.	.	.	.	.	.	.	.	.	.	.	.	.	.	.	.	.	.	.	.	.
8E-\	.	8B-/	.	8G/	.	8e-/	.	.	.	.	.	.	.	.	.	.	.	.	.	.	.	.	.	.	.	.	.	.	.	.	.
8E-\J	.	8B-/J	.	8G/J	.	8e-/J	.	.	.	.	.	.	.	.	.	.	.	.	.	.	.	.	.	.	.	.	.	.	.	.	.
.	.	.	.	.	.	8qqe-/	.	.	.	.	.	.	.	.	.	.	.	.	.	.	.	.	.	.	.	.	.	.	.	.	.
!	!	!	!	!	!	!	!LO:DY:a:t=p&colon;	!	!	!	!	!	!	!	!	!	!	!	!	!	!	!	!	!	!	!	!	!	!	!	!
4F\	p	4B-/	.	4A-/	p	4d/	p	.	.	.	.	.	.	.	.	.	.	.	.	.	.	.	.	.	.	.	.	.	.	.	.
4r	.	(16A-/LL	.	4r	.	16d/LL	.	.	.	.	.	.	.	.	.	.	.	.	.	.	.	.	.	.	.	.	.	.	.	.	.
.	.	16G/	.	.	.	16e-/	.	.	.	.	.	.	.	.	.	.	.	.	.	.	.	.	.	.	.	.	.	.	.	.	.
.	.	16F/	.	.	.	16f/	.	.	.	.	.	.	.	.	.	.	.	.	.	.	.	.	.	.	.	.	.	.	.	.	.
.	.	16E-/JJ)	.	.	.	16g/JJ	.	.	.	.	.	.	.	.	.	.	.	.	.	.	.	.	.	.	.	.	.	.	.	.	.
=2	=2	=2	=2	=2	=2	=2	=2	=2	=2	=2	=2	=2	=2	=2	=2	=2	=2	=2	=2	=2	=2	=2	=2	=2	=2	=2	=2	=2	=2	=2	=2
!	!	!	!	!	!LO:DY:rj	!	!LO:DY:t=f&colon;	!	!	!	!	!	!	!	!	!	!	!	!	!	!	!	!	!	!	!	!	!	!	!	!
8.BB-/L	f	8.D/L	.	8.d/L	f	8.a-/L	f	.	.	.	.	.	.	.	.	.	.	.	.	.	.	.	.	1r	.	.	.	.	.	.	.
16BB-/K	.	16F/K	.	16d/K	.	16a-/K	.	.	.	.	.	.	.	.	.	.	.	.	.	.	.	.	.	.	.	.	.	.	.	.	.
8BB-/	.	8F/	.	8d/	.	8a-/	.	.	.	.	.	.	.	.	.	.	.	.	.	.	.	.	.	.	.	.	.	.	.	.	.
8BB-/J	.	8F/J	.	8d/J	.	8a-/J	.	.	.	.	.	.	.	.	.	.	.	.	.	.	.	.	.	.	.	.	.	.	.	.	.
.	.	8qqA-/	pp	.	.	8qqa-/	.	.	.	.	.	.	.	.	.	.	.	.	.	.	.	.	.	.	.	.	.	.	.	.	.
!	!	!LO:TX:t=P:problem:mixed beam	!	!	!	!LO:TX:t=P:problem:mixed beam	!	!	!	!	!	!	!	!	!	!	!	!	!	!	!	!	!	!	!	!	!	!	!	!	!
8E-\	.	8G/L	.	8e-/	.	8g/L	.	.	.	.	.	.	.	.	.	.	.	.	.	.	.	.	.	.	.	.	.	.	.	.	.
8r	.	(8e-\	.	8r	.	(8ee-\	.	.	.	.	.	.	.	.	.	.	.	.	.	.	.	.	.	.	.	.	.	.	.	.	.
8r	.	8B-\	.	8r	p	8b-\	.	.	.	.	.	.	.	.	.	.	.	.	.	.	.	.	.	.	.	.	.	.	.	.	.
8E-\	p	8G\J)	.	8e-/	.	8g\J)	.	.	.	.	.	.	.	.	.	.	.	.	.	.	.	.	.	.	.	.	.	.	.	.	.
=3	=3	=3	=3	=3	=3	=3	=3	=3	=3	=3	=3	=3	=3	=3	=3	=3	=3	=3	=3	=3	=3	=3	=3	=3	=3	=3	=3	=3	=3	=3	=3
4A-\	.	8c\	.	8A-/	.	(8cc/L	.	.	.	.	.	.	.	.	.	.	.	.	.	.	.	.	.	1r	.	.	.	.	.	.	.
.	.	4A-/	.	4c/	.	8a-/	.	.	.	.	.	.	.	.	.	.	.	.	.	.	.	.	.	.	.	.	.	.	.	.	.
8F\L	.	.	.	.	.	8f/	.	.	.	.	.	.	.	.	.	.	.	.	.	.	.	.	.	.	.	.	.	.	.	.	.
8An\J	.	8c\	.	8An/	.	8e-/J)	.	.	.	.	.	.	.	.	.	.	.	.	.	.	.	.	.	.	.	.	.	.	.	.	.
!LO:TX:t=P:problem:mixed beam	!	!	!	!	!LO:DY:rj	!LO:TX:t=P:problem:mixed beam	!LO:DY:a:t=f&colon;	!	!	!	!	!	!	!	!	!	!	!	!	!	!	!	!	!	!	!	!	!	!	!	!
8B-\L	.	8f\L	.	8B-/L	f	8d/L	f	.	.	.	.	.	.	.	.	.	.	.	.	.	.	.	.	.	.	.	.	.	.	.	.
8BB-/	.	8f\	.	8d/	.	8b-\J	.	.	.	.	.	.	.	.	.	.	.	.	.	.	.	.	.	.	.	.	.	.	.	.	.
.	.	.	.	.	.	16qqa-/LL	.	.	.	.	.	.	.	.	.	.	.	.	.	.	.	.	.	.	.	.	.	.	.	.	.
.	.	.	.	.	.	16qqcc/JJ	.	.	.	.	.	.	.	.	.	.	.	.	.	.	.	.	.	.	.	.	.	.	.	.	.
8BB-/	.	8f\	.	8d/	.	8b-\L	.	.	.	.	.	.	.	.	.	.	.	.	.	.	.	.	.	.	.	.	.	.	.	.	.
.	.	.	.	.	.	16qqa-/LL	.	.	.	.	.	.	.	.	.	.	.	.	.	.	.	.	.	.	.	.	.	.	.	.	.
.	.	.	.	.	.	16qqcc/JJ	.	.	.	.	.	.	.	.	.	.	.	.	.	.	.	.	.	.	.	.	.	.	.	.	.
8BB-/J	.	8f\J	.	8d/J	.	8b-\J	.	.	.	.	.	.	.	.	.	.	.	.	.	.	.	.	.	.	.	.	.	.	.	.	.
=4	=4	=4	=4	=4	=4	=4	=4	=4	=4	=4	=4	=4	=4	=4	=4	=4	=4	=4	=4	=4	=4	=4	=4	=4	=4	=4	=4	=4	=4	=4	=4
.	.	.	.	.	.	16qqa-/LL	.	.	.	.	.	.	.	.	.	.	.	.	.	.	.	.	.	.	.	.	.	.	.	.	.
.	.	.	.	.	.	16qqcc/JJ	.	.	.	.	.	.	.	.	.	.	.	.	.	.	.	.	.	.	.	.	.	.	.	.	.
*	*	*2\right	*	*	*	*2\right	*	*	*	*	*	*	*	*	*	*	*	*	*	*	*	*	*	*	*	*	*	*	*	*	*
2BB-/	.	2f\	.	2d/	.	2b-\	.	.	.	.	.	.	.	.	.	.	.	.	.	.	.	.	.	1r	.	.	.	.	.	.	.
2r	.	2r	.	2r	.	2r	.	.	.	.	.	.	.	.	.	.	.	.	.	.	.	.	.	.	.	.	.	.	.	.	.
=5	=5	=5	=5	=5	=5	=5	=5	=5	=5	=5	=5	=5	=5	=5	=5	=5	=5	=5	=5	=5	=5	=5	=5	=5	=5	=5	=5	=5	=5	=5	=5
!	!	!	!	!	!	!	!	!	!	!	!	!	!	!	!	!LO:CL:ed	!	!	!	!	!	!	!	!	!	!	!	!	!	!	!
*	*	*	*	*	*	*	*	*	*	*	*	*	*	*	*	*clefC1	*	*	*	*	*	*	*	*	*	*	*	*	*	*2\right	*
!LO:TX:a:t=2	!	!LO:TX:a:t=3	!	!LO:TX:a:t=3	!	!LO:TX:a:t=2	!	!	!	!	!	!	!	!	!	!LO:TX:t=P:problem:w tt. nr 5-7 partie S zapisana pomocniczo 	!	!	!	!	!	!	!	!	!LO:DY:rj	!	!	!LO:TX:a:i:t=Solo	!	!LO:TX:a:i:t=Solo	!
0r	.	0r	.	0r	.	0r	.	4E-\	Mi-	Ec-	.	4B-\	Mi-	Ec-	.	4ee-\	Mi-	Ec-	.	4ee-\	Mi-	Ec-	.	2E-/	p	2E-/	.	2g/	pp	2ee-\	pp
.	.	.	.	.	.	.	.	4E-\	-se-	-ce	.	4B-\	-se-	-ce	.	4ee-\	-se-	-ce	.	4ee-\	-se-	-ce	.	.	.	.	.	.	.	.	.
.	.	.	.	.	.	.	.	.	.	.	.	.	.	.	.	8qqdd-X/	.	.	.	8qqdd-X/	.	.	.	.	.	.	.	.	.	8qqdd-X/	.
.	.	.	.	.	.	.	.	4A-\	-re-	quo-	.	4e-\	-re-	quo-	.	4cc\	-re-	quo-	.	4cc\	-re-	quo-	.	2E-/	.	2E-/	.	2a-/	.	2cc\	.
.	.	.	.	.	.	.	.	4A-\	-re	-mo-	.	4e-\	-re	-mo-	.	4cc\	-re	-mo-	.	4cc\	-re	-mo-	.	.	.	.	.	.	.	.	.
=6	=6	=6	=6	=6	=6	=6	=6	=6	=6	=6	=6	=6	=6	=6	=6	=6	=6	=6	=6	=6	=6	=6	=6	=6	=6	=6	=6	=6	=6	=6	=6
.	.	.	.	.	.	.	.	4G\	me-	-do	.	4e-\	me-	-do	.	4b-\	me-	-do	.	4b-\	me-	-do	.	2E-/	.	2E-/	.	4g/	.	4b-/	.
.	.	.	.	.	.	.	.	8G\L	-i	mo-	.	4e-\	-i	mo-	.	8g\L	-i	mo-	.	8g\L	-i	mo-	.	.	.	.	.	8e-/L	.	8g/L	.
.	.	.	.	.	.	.	.	8A-\J	.	.	.	.	.	.	.	8b-\J	.	.	.	8b-\J	.	.	.	.	.	.	.	8g/J	.	8b-/J	.
.	.	.	.	.	.	.	.	(4B-\	De-	-ri-	.	(4e-\	De-	-ri-	.	(4b-\	De-	-ri-	.	(4b-\	De-	-ri-	.	2BB-/	.	2BB-/	.	4g/	.	4b-/	.
.	.	.	.	.	.	.	.	4BB-/)	.	.	.	4d\)	.	.	.	4a-\)	.	.	.	4a-\)	.	.	.	.	.	.	.	4f/	.	4a-/	.
!	!	!	!	!	!	!LO:LB:g=original	!	!	!	!	!	!	!	!	!	!	!	!	!	!	!	!	!	!	!	!	!	!	!	!	!
=7	=7	=7	=7	=7	=7	=7	=7	=7	=7	=7	=7	=7	=7	=7	=7	=7	=7	=7	=7	=7	=7	=7	=7	=7	=7	=7	=7	=7	=7	=7	=7
.	.	.	.	.	.	.	.	.	.	.	.	.	.	.	.	.	.	.	.	.	.	.	.	.	.	.	.	.	.	8qqb-/	.
*	*	*	*	*	*	*	*	*	*	*	*	*2\right	*	*	*	*	*	*	*	*	*	*	*	*	*	*	*	*	*	*	*
2r	.	1r	.	1r	.	2r	.	(4BB-/	-us	-tur	.	2B-\	-us	-tur	.	4a-\	-us	-tur	.	(4a-\	-us	-tur	.	2E-/	.	2E-/	.	4f/	.	4a-T/	.
.	.	.	.	.	.	.	.	4E-\)	.	.	.	.	.	.	.	4g\	.	.	.	4g\)	.	.	.	.	.	.	.	4e-/	.	4g/	.
*	*	*	*	*	*	*	*	*	*	*	*	*	*	*	*	*clefC3	*	*	*	*	*	*	*	*	*	*	*	*	*	*	*
!LO:LB:g=original	!	!	!	!	!	!	!	!	!	!	!	!	!	!	!	!	!	!	!	!	!	!	!	!	!	!	!	!	!	!	!
4r	.	.	.	.	.	4r	.	2r	.	.	.	2r	.	.	.	2r	.	.	.	2r	.	.	.	2r	.	2r	.	2r	.	2r	.
!	!	!	!	!	!	!	!LO:DY:t=f.	!	!	!	!	!	!	!	!	!	!	!	!	!	!	!	!	!	!	!	!	!	!	!	!
8r	.	.	.	.	.	16r	f	.	.	.	.	.	.	.	.	.	.	.	.	.	.	.	.	.	.	.	.	.	.	.	.
.	.	.	.	.	.	16ee-\LL|	.	.	.	.	.	.	.	.	.	.	.	.	.	.	.	.	.	.	.	.	.	.	.	.	.
8E-\	.	.	.	.	.	(16b-\	.	.	.	.	.	.	.	.	.	.	.	.	.	.	.	.	.	.	.	.	.	.	.	.	.
.	.	.	.	.	.	16g\JJ)	.	.	.	.	.	.	.	.	.	.	.	.	.	.	.	.	.	.	.	.	.	.	.	.	.
=8	=8	=8	=8	=8	=8	=8	=8	=8	=8	=8	=8	=8	=8	=8	=8	=8	=8	=8	=8	=8	=8	=8	=8	=8	=8	=8	=8	=8	=8	=8	=8
.	.	.	.	.	.	16qqen/LL	.	.	.	.	.	.	.	.	.	.	.	.	.	.	.	.	.	.	.	.	.	.	.	.	.
.	.	.	.	.	.	16qqg/JJ	.	.	.	.	.	.	.	.	.	.	.	.	.	.	.	.	.	.	.	.	.	.	.	.	.
!	!	!	!	!	!	!LO:TX:t=P:problem:mixed beam	!	!LO:TX:a:t=2	!	!	!	!LO:TX:a:t=2	!	!	!	!	!	!	!	!	!	!	!	!LO:TX:a:t=2	!	!LO:TX:a:t=2	!	!LO:TX:a:t=2	!	!LO:TX:a:t=2	!
4A-\	p	8r	.	8r	p	8f/L	p	0r	.	.	.	0r	.	.	.	0r	.	.	.	0r	.	.	.	0r	.	0r	.	0r	.	0r	.
.	.	8e-'\L	p	8a-'/L	.	(8cc'\	.	.	.	.	.	.	.	.	.	.	.	.	.	.	.	.	.	.	.	.	.	.	.	.	.
8r	.	8e-'\	.	8a-'/	.	8cc'\	.	.	.	.	.	.	.	.	.	.	.	.	.	.	.	.	.	.	.	.	.	.	.	.	.
8A-\	.	8e-'\J	.	8a-'/J	.	8cc'\J)	.	.	.	.	.	.	.	.	.	.	.	.	.	.	.	.	.	.	.	.	.	.	.	.	.
!	!	!	!	!	!	!LO:TX:a:t=t&colon;	!	!	!	!	!	!	!	!	!	!	!	!	!	!	!	!	!	!	!	!	!	!	!	!	!
.	.	.	.	.	.	8qqcc/	.	.	.	.	.	.	.	.	.	.	.	.	.	.	.	.	.	.	.	.	.	.	.	.	.
!	!	!	!	!LO:LB:g=original	!	!	!LO:DY:t=f&colon;	!	!	!	!	!	!	!	!	!	!	!	!	!	!	!	!	!	!	!	!	!	!	!	!
4G\	.	4e-\	.	4g/	.	4b-\	f	.	.	.	.	.	.	.	.	.	.	.	.	.	.	.	.	.	.	.	.	.	.	.	.
4A-\	.	4a-\	f	8a-/L	f	(16cc\LL	.	.	.	.	.	.	.	.	.	.	.	.	.	.	.	.	.	.	.	.	.	.	.	.	.
.	.	.	.	.	.	16a-\	.	.	.	.	.	.	.	.	.	.	.	.	.	.	.	.	.	.	.	.	.	.	.	.	.
.	.	.	.	(16B-/L	.	16g\	.	.	.	.	.	.	.	.	.	.	.	.	.	.	.	.	.	.	.	.	.	.	.	.	.
.	.	.	.	16A-/JJ)	.	16f\JJ)	.	.	.	.	.	.	.	.	.	.	.	.	.	.	.	.	.	.	.	.	.	.	.	.	.
=9	=9	=9	=9	=9	=9	=9	=9	=9	=9	=9	=9	=9	=9	=9	=9	=9	=9	=9	=9	=9	=9	=9	=9	=9	=9	=9	=9	=9	=9	=9	=9
4B-\	.	4b-\	.	8.G/L	.	8.e-X/L	.	.	.	.	.	.	.	.	.	.	.	.	.	.	.	.	.	.	.	.	.	.	.	.	.
.	.	.	.	16A-/Jk	.	16f/Jk	.	.	.	.	.	.	.	.	.	.	.	.	.	.	.	.	.	.	.	.	.	.	.	.	.
!	!	!	!	!	!	!LO:TX:a:t=t	!	!	!	!	!	!	!	!	!	!	!	!	!	!	!	!	!	!	!	!	!	!	!	!	!
4BB-/	.	4B-/	.	4A-T/	.	4f/	.	.	.	.	.	.	.	.	.	.	.	.	.	.	.	.	.	.	.	.	.	.	.	.	.
!LO:TX:t=P:problem:mixed beam	!	!	!	!	!	!	!	!	!	!	!	!	!	!	!	!	!	!	!	!	!	!	!	!	!	!	!	!	!	!	!
8.E-\L	.	8.e-\L	.	8.G/L	.	8.e-/L	.	.	.	.	.	.	.	.	.	.	.	.	.	.	.	.	.	.	.	.	.	.	.	.	.
16E-\K	.	16e-\Jk	.	16e-/Jk	.	16e-/Jk	.	.	.	.	.	.	.	.	.	.	.	.	.	.	.	.	.	.	.	.	.	.	.	.	.
!	!	!LO:LB:g=original	!	!	!	!	!	!	!	!	!	!	!	!	!	!	!	!	!	!	!	!	!	!	!	!	!	!	!	!	!
8GG/	.	(16G/LL	.	(16e-/LL	.	(16g/LL	.	.	.	.	.	.	.	.	.	.	.	.	.	.	.	.	.	.	.	.	.	.	.	.	.
.	.	16E-/)	.	16g/)	.	16e-/)	.	.	.	.	.	.	.	.	.	.	.	.	.	.	.	.	.	.	.	.	.	.	.	.	.
8BB-/J	.	(16B-/	.	(16g/	.	(16b-/	.	.	.	.	.	.	.	.	.	.	.	.	.	.	.	.	.	.	.	.	.	.	.	.	.
.	.	16G/JJ)	.	16b-/JJ)	.	16g/JJ)	.	.	.	.	.	.	.	.	.	.	.	.	.	.	.	.	.	.	.	.	.	.	.	.	.
=10	=10	=10	=10	=10	=10	=10	=10	=10	=10	=10	=10	=10	=10	=10	=10	=10	=10	=10	=10	=10	=10	=10	=10	=10	=10	=10	=10	=10	=10	=10	=10
*tremolo	*	*	*	*	*	*	*	*	*	*	*	*	*	*	*	*	*	*	*	*	*	*	*	*	*	*	*	*	*	*	*
*2\right	*	*	*	*	*	*	*	*2\right	*	*	*	*	*	*	*	*2\right	*	*	*	*2\right	*	*	*	*2\right	*	*2\right	*	*2\right	*	*	*
!	!	!LO:TX:t=P:problem:mixed beam	!	!	!	!LO:TX:t=P:problem:mixed beam	!LO:DY:t=f&colon;:rj	!	!	!	!	!	!	!	!	!	!	!	!	!	!	!	!	!	!	!	!LO:DY:a	!	!	!	!
8E-\L	f	(16E-/LL	f	(16e-/LL	.	(16e-/LL	f	2E-\	Mi-	Ju-	.	2B-\	Mi-	Ju-	.	2e-\	mi-	ju-	.	2gg\	mi-	Ju-	.	2e-\	f	2g\	f	2ee-\	f	2gg\	f
.	.	16g\	.	16b-/)	.	16gg\	.	.	.	.	.	.	.	.	.	.	.	.	.	.	.	.	.	.	.	.	.	.	.	.	.
8E-\	.	16e-\	.	(16e-/	.	16ee-\	.	.	.	.	.	.	.	.	.	.	.	.	.	.	.	.	.	.	.	.	.	.	.	.	.
.	.	16B-\JJ)	.	16b-/JJ)	.	16b-\JJ)	.	.	.	.	.	.	.	.	.	.	.	.	.	.	.	.	.	.	.	.	.	.	.	.	.
8E-\	.	(16G/LL	.	(16e-/LL	.	(16g/LL	.	.	.	.	.	.	.	.	.	.	.	.	.	.	.	.	.	.	.	.	.	.	.	.	.
.	.	16B-/	.	16b-/)	.	16b-/	.	.	.	.	.	.	.	.	.	.	.	.	.	.	.	.	.	.	.	.	.	.	.	.	.
8E-\J	.	16D/	.	(16e-/	.	16d/	.	.	.	.	.	.	.	.	.	.	.	.	.	.	.	.	.	.	.	.	.	.	.	.	.
.	.	16E-/JJ)	.	16b-/JJ)	.	16e-/JJ)	.	.	.	.	.	.	.	.	.	.	.	.	.	.	.	.	.	.	.	.	.	.	.	.	.
!	!	!LO:TX:t=P:problem:mixed beam	!	!LO:TX:t=P:problem:mixed beam	!	!LO:TX:t=P:problem:mixed beam	!	!	!	!	!	!	!	!	!	!	!	!	!	!	!	!	!	!	!	!	!	!	!	!	!
8BB-/L	.	(16D/LL	.	(16d/LL	.	(16d/LL	.	2BB-/	-se-	-stus	.	2B-\	-se-	-stus	.	2d\	-se-	-stus	.	2ff\	-se-	-stus	.	2B-/	.	2f\	.	2dd\	.	2ff\	.
.	.	16f\	.	16b-\)	.	16ff\	.	.	.	.	.	.	.	.	.	.	.	.	.	.	.	.	.	.	.	.	.	.	.	.	.
8BB-/	.	16d\	.	(16d/	.	16dd\	.	.	.	.	.	.	.	.	.	.	.	.	.	.	.	.	.	.	.	.	.	.	.	.	.
.	.	16B-\JJ)	.	16b-\JJ)	.	16b-\JJ)	.	.	.	.	.	.	.	.	.	.	.	.	.	.	.	.	.	.	.	.	.	.	.	.	.
!	!	!	!	!LO:TX:t=P:problem:mixed beam	!	!	!	!	!	!	!	!	!	!	!	!	!	!	!	!	!	!	!	!	!	!	!	!	!	!	!
8BB-/	.	(16An/LL	.	(16d/LL	.	(16an/LL	.	.	.	.	.	.	.	.	.	.	.	.	.	.	.	.	.	.	.	.	.	.	.	.	.
.	.	16c/	.	16b-\)	.	16b-/	.	.	.	.	.	.	.	.	.	.	.	.	.	.	.	.	.	.	.	.	.	.	.	.	.
8BB-/J	.	16F/	.	(16d/	.	16f/	.	.	.	.	.	.	.	.	.	.	.	.	.	.	.	.	.	.	.	.	.	.	.	.	.
.	.	16D/JJ)	.	16b-\JJ)	.	16d/JJ)	.	.	.	.	.	.	.	.	.	.	.	.	.	.	.	.	.	.	.	.	.	.	.	.	.
=11	=11	=11	=11	=11	=11	=11	=11	=11	=11	=11	=11	=11	=11	=11	=11	=11	=11	=11	=11	=11	=11	=11	=11	=11	=11	=11	=11	=11	=11	=11	=11
!	!	!LO:TX:t=P:problem:mixed beam	!	!	!	!LO:TX:t=P:problem:mixed beam	!	!	!	!	!	!	!	!	!	!	!	!	!	!	!	!	!	!LO:TX:a:t=d	!	!	!	!	!	!	!
8F\L	.	(16C/LL	.	(16c/LL	.	(16c/LL	.	4F\	-re-	et	.	4c\	-re-	et	.	4an\	-re-	et	.	4ee-\	-re-	et	.	2f\	.	2f\	.	4cc\	.	2ee-\	.
!	!	!	!	!LO:SIC:v:s=16an/)	!	!	!	!	!	!	!	!	!	!	!	!	!	!	!	!	!	!	!	!	!	!	!	!	!	!	!
.	.	16e-\	.	16a-/)	.	16ee-\	.	.	.	.	.	.	.	.	.	.	.	.	.	.	.	.	.	.	.	.	.	.	.	.	.
8F\	.	16c\	.	(16c/	.	16cc\	.	.	.	.	.	.	.	.	.	.	.	.	.	.	.	.	.	.	.	.	.	.	.	.	.
!	!	!LO:SIC:v:s=16An\JJ)	!	!LO:SIC:v:s=16a/JJ)	!	!	!	!	!	!	!	!	!	!	!	!	!	!	!	!	!	!	!	!	!	!	!	!	!	!	!
.	.	16A-\JJ)	.	16a-/JJ)	.	16an\JJ)	.	.	.	.	.	.	.	.	.	.	.	.	.	.	.	.	.	.	.	.	.	.	.	.	.
8F\	.	(16F/LL	.	(16c/LL	.	(16f/LL	.	4F\	-re	ne-	.	4c\	-re	ne-	.	4a\	-re	ne-	.	4ee-\	-re	ne-	.	.	.	.	.	4an/	.	.	.
!	!	!	!	!LO:SIC:v:s=16a/)	!	!	!	!	!	!	!	!	!	!	!	!	!	!	!	!	!	!	!	!	!	!	!	!	!	!	!
.	.	16E-/	.	16a-/)	.	16e-/	.	.	.	.	.	.	.	.	.	.	.	.	.	.	.	.	.	.	.	.	.	.	.	.	.
8F\J	.	16C/	.	(16c/	.	16c/	.	.	.	.	.	.	.	.	.	.	.	.	.	.	.	.	.	.	.	.	.	.	.	.	.
*Xtremolo	*	*	*	*	*	*	*	*	*	*	*	*	*	*	*	*	*	*	*	*	*	*	*	*	*	*	*	*	*	*	*
!	!	!	!	!LO:SIC:v:s=16a/JJ)	!	!	!	!	!	!	!	!	!	!	!	!	!	!	!	!	!	!	!	!	!	!	!	!	!	!	!
.	.	16E-/JJ)	.	16a-/JJ)	.	16e-/JJ)	.	.	.	.	.	.	.	.	.	.	.	.	.	.	.	.	.	.	.	.	.	.	.	.	.
!	!	!	!	!	!	!LO:TX:t=P:problem:mixed beam	!	!	!	!	!	!	!	!	!	!	!	!	!	!	!	!	!	!	!	!	!	!	!	!	!
8B-\L	.	(16D/LL	.	(16B-/LL	.	(16d/LL	.	4B-\	me-	-mo	.	4f\	me-	.	.	4b-\	me-	-mo-	.	4dd\	me-	-mo	.	4f\	.	4f\	.	4b-/	.	4dd\	.
.	.	16B-/	.	16d/)	.	16b-\	.	.	.	.	.	.	.	.	.	.	.	.	.	.	.	.	.	.	.	.	.	.	.	.	.
8B-\	.	16F/	.	(16d/	.	16f\	.	.	.	.	.	.	.	.	.	.	.	.	.	.	.	.	.	.	.	.	.	.	.	.	.
.	.	16D/JJ)	.	16B-/JJ)	.	16d\JJ)	.	.	.	.	.	.	.	.	.	.	.	.	.	.	.	.	.	.	.	.	.	.	.	.	.
8E-\	.	(16E-/LL	.	(16B-/LL	.	(16e-/LL	.	4E-\	-i	per-	.	8e-\L	-i	.	.	8g\L	-i	.	.	8ee-\L	-i	per-	.	4r	.	4r	.	8g/L	.	8ee-\L	.
.	.	16G/)	.	16e-/	.	16g/	.	.	.	.	.	.	.	.	.	.	.	.	.	.	.	.	.	.	.	.	.	.	.	.	.
8E-\J	.	(16C/	.	16g/	.	16c/	.	.	.	.	.	8g\J	.	.	.	8e-\J	.	.	.	8cc\J	.	.	.	.	.	.	.	8e-/J	.	8cc\J	.
.	.	16E-/JJ)	.	16e-/JJ)	.	16e-/JJ)	.	.	.	.	.	.	.	.	.	.	.	.	.	.	.	.	.	.	.	.	.	.	.	.	.
!	!	!	!	!	!	!LO:LB:g=original	!	!	!	!	!	!	!	!	!	!LO:LB:g=original	!	!	!	!	!	!	!	!	!	!	!	!	!	!	!
=12	=12	=12	=12	=12	=12	=12	=12	=12	=12	=12	=12	=12	=12	=12	=12	=12	=12	=12	=12	=12	=12	=12	=12	=12	=12	=12	=12	=12	=12	=12	=12
!LO:TX:t=P:problem:mixed beam	!	!	!	!	!	!	!	!	!	!	!	!	!	!	!	!	!	!	!	!	!	!	!	!	!	!	!	!	!	!	!
8F\L	.	16r	.	16r	.	16r	.	(<4F\	De-	-ci-	.	2f\	De-	.	.	(4d\	De-	-per-	.	(4b-\	De-	-ci-	.	4f\	.	4f\	.	4d/	.	4b-/	.
.	.	16F'/LL	.	16d'/LL	.	16b-'\LL	.	.	.	.	.	.	.	.	.	.	.	.	.	.	.	.	.	.	.	.	.	.	.	.	.
8F\	.	16F'/	.	16d'/	.	16b-'\	.	.	.	.	.	.	.	.	.	.	.	.	.	.	.	.	.	.	.	.	.	.	.	.	.
.	.	16F'/JJ	.	16d'/JJ	.	16b-'\JJ	.	.	.	.	.	.	.	.	.	.	.	.	.	.	.	.	.	.	.	.	.	.	.	.	.
!	!	!	!	!	!	!	!	!	!	!	!	!	!	!	!	!	!	!	!	!	!	!	!	!	!	!	!	!	!	!LO:SIC:v:s=4an/	!
8FF/	.	16r	.	16r	.	16r	.	4FF/)	.	.	.	.	.	.	.	4e-\)	.	-ci-	.	4an\)	.	.	.	4f\	.	4f\	.	4e-/	.	4a-/	.
.	.	16F/LL	.	16c'/LL	.	16an'\LL	.	.	.	.	.	.	.	.	.	.	.	.	.	.	.	.	.	.	.	.	.	.	.	.	.
8FF/J	.	16F/	.	16c'/	.	16a'\	.	.	.	.	.	.	.	.	.	.	.	.	.	.	.	.	.	.	.	.	.	.	.	.	.
.	.	16F/JJ	.	16c'/JJ	.	16a'\JJ	.	.	.	.	.	.	.	.	.	.	.	.	.	.	.	.	.	.	.	.	.	.	.	.	.
.	.	.	.	.	.	.	.	.	.	.	.	.	.	.	.	.	.	.	.	.	.	.	.	.	.	.	.	.	.	8qqcc/	.
!	!	!	!	!LO:LB:g=original	!	!LO:TX:t=P:problem:mixed beam	!	!	!	!	!	!	!	!	!	!	!	!	!	!	!	!	!	!	!	!	!	!	!	!	!
4BB-/	.	8B-/L	.	8d/L	.	(16.b-\LL	.	4BB-/	-us	-pit	.	4f\	-us	-mo	.	4d\	-us	-pit	.	4b-\	-us	-pit.	.	4f\	.	4f\	.	4d/	.	4b-/	.
.	.	.	.	.	.	32B-/K)	.	.	.	.	.	.	.	.	.	.	.	.	.	.	.	.	.	.	.	.	.	.	.	.	.
.	.	16.B-/L	.	16.B-/L	.	(16.B-/	.	.	.	.	.	.	.	.	.	.	.	.	.	.	.	.	.	.	.	.	.	.	.	.	.
.	.	32D/JJk	.	32d/JJk	.	32d/JJk)	.	.	.	.	.	.	.	.	.	.	.	.	.	.	.	.	.	.	.	.	.	.	.	.	.
4r	.	16.D/LL	.	16.d/LL	.	(16.d/LL	.	4r	.	.	.	4r	.	.	.	4r	.	.	.	4r	.	.	.	4r	.	4r	.	4r	.	4r	.
.	.	32F/K	.	32f/K	.	32f/K)	.	.	.	.	.	.	.	.	.	.	.	.	.	.	.	.	.	.	.	.	.	.	.	.	.
.	.	16.F/	.	16.f/	.	(16.f/	.	.	.	.	.	.	.	.	.	.	.	.	.	.	.	.	.	.	.	.	.	.	.	.	.
.	.	32B-/JJk	.	32b-/JJk	.	32b-/JJk)	.	.	.	.	.	.	.	.	.	.	.	.	.	.	.	.	.	.	.	.	.	.	.	.	.
!	!	!LO:LB:g=original	!	!	!	!	!	!	!	!	!	!	!	!	!	!	!	!	!	!LO:LB:g=original	!	!	!	!	!	!	!	!	!	!LO:LB:g=original	!
=13	=13	=13	=13	=13	=13	=13	=13	=13	=13	=13	=13	=13	=13	=13	=13	=13	=13	=13	=13	=13	=13	=13	=13	=13	=13	=13	=13	=13	=13	=13	=13
!	!	!LO:TX:t=P:problem:mixed beam	!	!	!	!LO:TX:t=P:problem:mixed beam	!	!	!	!	!	!	!	!	!	!	!	!	!	!	!	!	!	!	!	!	!	!	!	!	!
8r	.	(16G/LL	.	(16e-/LL	.	(16g/LL	.	4.G\	mi-	vi-	.	4.e-\	mi-	per-	.	4.g\	mi-	vi-	.	4.ee-\	mi-	Vi-	.	4e-\	.	4g\	.	4.g/	.	4.ee-\	.
.	.	16B-/	.	16g/)	.	16b-/	.	.	.	.	.	.	.	.	.	.	.	.	.	.	.	.	.	.	.	.	.	.	.	.	.
8E-\L	.	16E-/)	.	(16e-/	.	16e-/	.	.	.	.	.	.	.	.	.	.	.	.	.	.	.	.	.	.	.	.	.	.	.	.	.
.	.	16e-\JJ	.	16g/JJ)	.	16ee-\JJ)	.	.	.	.	.	.	.	.	.	.	.	.	.	.	.	.	.	.	.	.	.	.	.	.	.
8G\	.	(16d-X/LL	.	(16e-/LL	.	(16dd-X\LL	.	.	.	.	.	.	.	.	.	.	.	.	.	.	.	.	.	8e-\L	.	8g\L	.	.	.	.	.
.	.	16B-/	.	16g/)	.	16b-\	.	.	.	.	.	.	.	.	.	.	.	.	.	.	.	.	.	.	.	.	.	.	.	.	.
8E-\J	.	16G/	.	(16e-/	.	16g\	.	8E-\	-se-	-ri	.	8e-\	-se-	-ci-	.	8g\	-se-	-ri	.	8dd-X\	-se-	-ri	.	8e-\J	.	8g\J	.	8g/	.	8dd-X\	.
.	.	16E-/JJ)	.	16g/JJ)	.	16e-\JJ)	.	.	.	.	.	.	.	.	.	.	.	.	.	.	.	.	.	.	.	.	.	.	.	.	.
.	.	.	.	.	.	.	.	.	.	.	.	.	.	.	.	.	.	.	.	.	.	.	.	.	.	.	.	.	.	8qqdd-/	.
!	!	!	!	!	!	!	!	!LO:LB:g=original	!	!	!	!	!	!	!	!	!	!	!	!	!	!	!	!	!	!	!	!	!	!	!
8A-X\L	.	16.c/LL	.	(16e-/LL	.	(16.cc\LL	.	4A-X\	-re-	Cor-	.	4e-\	-re-	-pit	.	4a-X\	-re-	cor-	.	4cc\	-re-	Ju-	.	4e-\	.	4a-\	.	4a-X/	.	4cc\	.
.	.	.	.	16a-X/)	.	.	.	.	.	.	.	.	.	.	.	.	.	.	.	.	.	.	.	.	.	.	.	.	.	.	.
.	.	32G/K	.	.	.	32g\K	.	.	.	.	.	.	.	.	.	.	.	.	.	.	.	.	.	.	.	.	.	.	.	.	.
8F\	.	16.A-X/	.	(16e-/	.	16.a-X\)	.	.	.	.	.	.	.	.	.	.	.	.	.	.	.	.	.	.	.	.	.	.	.	.	.
.	.	.	.	16a-/JJ)	.	.	.	.	.	.	.	.	.	.	.	.	.	.	.	.	.	.	.	.	.	.	.	.	.	.	.
.	.	32A-/JJk	.	.	.	32a-\JJk	.	.	.	.	.	.	.	.	.	.	.	.	.	.	.	.	.	.	.	.	.	.	.	.	.
!	!	!LO:TX:t=P:problem:mixed beam	!	!	!	!	!	!	!	!	!	!	!	!	!	!	!	!	!	!	!	!	!	!	!	!	!	!	!	!	!
8C\	.	16.A-/LL	.	16e-/LL	.	16.a-X/LL	.	4AA-/	-re	-de	.	4e-\	-re	ne-	.	4a-\	-re	-de	.	4cc\	-re	-sti	.	4e-\	.	4a-\	.	4a-/	.	4cc\	.
.	.	.	.	16a-/	.	.	.	.	.	.	.	.	.	.	.	.	.	.	.	.	.	.	.	.	.	.	.	.	.	.	.
.	.	32e-\K	.	.	.	32e-/K	.	.	.	.	.	.	.	.	.	.	.	.	.	.	.	.	.	.	.	.	.	.	.	.	.
8AA-X\J	.	16.c\	.	16e-/	.	16.c/	.	.	.	.	.	.	.	.	.	.	.	.	.	.	.	.	.	.	.	.	.	.	.	.	.
.	.	.	.	16a-/JJ	.	.	.	.	.	.	.	.	.	.	.	.	.	.	.	.	.	.	.	.	.	.	.	.	.	.	.
.	.	32A-\JJk	.	.	.	32A-X/JJk	.	.	.	.	.	.	.	.	.	.	.	.	.	.	.	.	.	.	.	.	.	.	.	.	.
!	!	!	!	!	!	!	!	!	!	!	!	!LO:LB:g=original	!	!	!	!	!	!	!	!	!	!	!	!	!	!LO:LB:g=original	!	!LO:LB:g=original	!	!	!
=14	=14	=14	=14	=14	=14	=14	=14	=14	=14	=14	=14	=14	=14	=14	=14	=14	=14	=14	=14	=14	=14	=14	=14	=14	=14	=14	=14	=14	=14	=14	=14
*	*	*	*	*	*	*	*	*	*	*	*	*	*	*	*	*	*ij	*	*	*	*	*	*	*	*	*	*	*	*	*	*
8r	.	16.F/LL	.	(16f/LL	.	16.f/LL	.	4.An\	mi-	tol-	.	4.f\	mi-	-mo	.	4.an\	mi-	per-	.	4.ff\	mi-	tol-	.	4f\	.	4f\	.	4.an/	.	4.ff\	.
.	.	.	.	16an/)	.	.	.	.	.	.	.	.	.	.	.	.	.	.	.	.	.	.	.	.	.	.	.	.	.	.	.
.	.	32An/K	.	.	.	32an/K	.	.	.	.	.	.	.	.	.	.	.	.	.	.	.	.	.	.	.	.	.	.	.	.	.
8F\L	.	16.c/	.	(16f/	.	16.cc/	.	.	.	.	.	.	.	.	.	.	.	.	.	.	.	.	.	.	.	.	.	.	.	.	.
.	.	.	.	16a/JJ)	.	.	.	.	.	.	.	.	.	.	.	.	.	.	.	.	.	.	.	.	.	.	.	.	.	.	.
.	.	32d/JJk	.	.	.	32ddn/JJk	.	.	.	.	.	.	.	.	.	.	.	.	.	.	.	.	.	.	.	.	.	.	.	.	.
!LO:SIC:v:s=8An\	!	!	!	!	!	!	!	!	!	!	!	!	!	!	!	!	!	!	!	!	!	!	!	!	!	!	!	!	!	!	!
8A-\	.	16.e-/LL	.	(16f/LL	.	16.ee-\LL	.	.	.	.	.	.	.	.	.	.	.	.	.	.	.	.	.	8f\L	.	8f\L	.	.	.	.	.
.	.	.	.	16a/)	.	.	.	.	.	.	.	.	.	.	.	.	.	.	.	.	.	.	.	.	.	.	.	.	.	.	.
.	.	32c/K	.	.	.	32cc\K	.	.	.	.	.	.	.	.	.	.	.	.	.	.	.	.	.	.	.	.	.	.	.	.	.
8F\J	.	16.A/	.	(16f/	.	16.an\	.	8F\	-se-	.	.	8f\	-se-	Ju-	.	8a\	-se-	.	.	8ee-\	-se-	.	.	8f\J	.	8f\J	.	8a/	.	8ee-\	.
.	.	.	.	16a/JJ)	.	.	.	.	.	.	.	.	.	.	.	.	.	.	.	.	.	.	.	.	.	.	.	.	.	.	.
.	.	32F/JJk	.	.	.	32f\JJk	.	.	.	.	.	.	.	.	.	.	.	.	.	.	.	.	.	.	.	.	.	.	.	.	.
!	!	!	!	!	!	!	!	!	!	!	!	!	!	!	!	!	!	!	!	!	!	!	!	!LO:LB:g=original	!	!	!	!	!	!	!
8B-\L	.	16r	.	(16f/LL	.	16r	.	4B-\	-re-	-lun-	.	4f\	-re-	-sti	.	4b-\	-re-	-ci-	.	4ddn\	-re-	-lun-	.	4f\	.	4f\	.	4b-/	.	4ddn\	.
.	.	16F'/LL	.	16b-/)	.	16dd\LL|	.	.	.	.	.	.	.	.	.	.	.	.	.	.	.	.	.	.	.	.	.	.	.	.	.
8F\J	.	16F'/	.	16f/	.	(16a\	.	.	.	.	.	.	.	.	.	.	.	.	.	.	.	.	.	.	.	.	.	.	.	.	.
.	.	16F'/JJ	.	16d/JJ	.	16b-\JJ)	.	.	.	.	.	.	.	.	.	.	.	.	.	.	.	.	.	.	.	.	.	.	.	.	.
8D/L	.	16F'/LL	.	(16c/LL	.	(16a\LL	.	4BB-/	-re	.	.	4f\	-re	tol-	.	4b-\	-re	-pit	.	4dd\	-re	-tur	.	4f\	.	4f\	.	4b-/	.	4dd\	.
*	*	*	*	*	*	*	*	*	*	*	*	*	*	*	*	*	*Xij	*	*	*	*	*	*	*	*	*	*	*	*	*	*
.	.	16F'/	.	16d/)	.	16b-\	.	.	.	.	.	.	.	.	.	.	.	.	.	.	.	.	.	.	.	.	.	.	.	.	.
8BB-/J	.	16F'/	.	(16c/	.	16a\	.	.	.	.	.	.	.	.	.	.	.	.	.	.	.	.	.	.	.	.	.	.	.	.	.
.	.	16F'/JJ	.	16d/JJ)	.	16b-\JJ)	.	.	.	.	.	.	.	.	.	.	.	.	.	.	.	.	.	.	.	.	.	.	.	.	.
!LO:LB:g=original	!	!	!	!	!	!	!	!	!	!	!	!	!	!	!	!	!	!	!	!	!	!	!	!	!	!	!	!	!	!	!
=15	=15	=15	=15	=15	=15	=15	=15	=15	=15	=15	=15	=15	=15	=15	=15	=15	=15	=15	=15	=15	=15	=15	=15	=15	=15	=15	=15	=15	=15	=15	=15
8BB-/L	.	(16.A-X/LL	.	(16B-/LL	.	16.a-X/LL	.	4BB-/	me-	-tur	.	4B-\	me-	-lun-	.	4a-X\	me-	vi-	.	4dd\	me-	et	.	2BB-/	.	2B-/	.	4a-X/	.	4dd\	.
.	.	.	.	16d/)	.	.	.	.	.	.	.	.	.	.	.	.	.	.	.	.	.	.	.	.	.	.	.	.	.	.	.
.	.	32F/K	.	.	.	32f/K	.	.	.	.	.	.	.	.	.	.	.	.	.	.	.	.	.	.	.	.	.	.	.	.	.
8D/	.	16A-/	.	(16B-/	.	16a-/	.	.	.	.	.	.	.	.	.	.	.	.	.	.	.	.	.	.	.	.	.	.	.	.	.
.	.	16A-/JJ)	.	16d/JJ)	.	16a-/JJ	.	.	.	.	.	.	.	.	.	.	.	.	.	.	.	.	.	.	.	.	.	.	.	.	.
8BB-/	.	(16G/LL	.	(16B-/LL	.	(16g/LL	.	4E-\	-i	et	.	4B-\	-i	-tur	.	4g\	-i	-ri	.	4ee-\	-i	.	.	.	.	.	.	4g/	.	4ee-\	.
.	.	16B-/	.	16e-/)	.	16b-/	.	.	.	.	.	.	.	.	.	.	.	.	.	.	.	.	.	.	.	.	.	.	.	.	.
8E-/J	.	16d/	.	(16B-/	.	16dd/	.	.	.	.	.	.	.	.	.	.	.	.	.	.	.	.	.	.	.	.	.	.	.	.	.
.	.	16e-/JJ)	.	16e-/JJ)	.	16ee-/JJ)	.	.	.	.	.	.	.	.	.	.	.	.	.	.	.	.	.	.	.	.	.	.	.	.	.
!LO:TX:t=P:problem:mixed beam	!	!	!	!	!	!LO:LB:g=original	!	!	!	!	!	!	!	!	!	!	!	!	!	!	!	!	!	!	!	!	!	!	!	!	!
16BB-/LL	.	(16a-\LL	.	(16B-/LL	.	(16aa-\LL	.	4D\	De-	ne-	.	4B-\	De-	cor-	.	4f\	De-	cor-	.	4aa-\	De-	ne-	.	2BB-/	.	2B-/	.	4f/	.	4aa-\	.
16F\	.	16f\	.	16f/)	.	16ff\	.	.	.	.	.	.	.	.	.	.	.	.	.	.	.	.	.	.	.	.	.	.	.	.	.
16D\	.	16d\	.	(16B-/	.	16dd\	.	.	.	.	.	.	.	.	.	.	.	.	.	.	.	.	.	.	.	.	.	.	.	.	.
16BB-\JJ	.	16A-\JJ)	.	16f/JJ)	.	16a-\JJ)	.	.	.	.	.	.	.	.	.	.	.	.	.	.	.	.	.	.	.	.	.	.	.	.	.
!LO:TX:t=P:problem:mixed beam	!	!	!	!	!	!	!	!	!	!	!	!	!	!	!	!	!	!	!	!	!	!	!	!	!	!	!	!	!	!	!
8E-\L	.	(16.G/LL	.	(16B-/LL	.	16.g/LL	.	4E-\	-us	-mo	.	4B-\	-us	-de	.	4e-\	-us	-de	.	4gg\	-us	-mo	.	.	.	.	.	4e-/	.	4gg\	.
.	.	.	.	16e-/)	.	.	.	.	.	.	.	.	.	.	.	.	.	.	.	.	.	.	.	.	.	.	.	.	.	.	.
.	.	32B-/K	.	.	.	32b-/K	.	.	.	.	.	.	.	.	.	.	.	.	.	.	.	.	.	.	.	.	.	.	.	.	.
8EE-/J	.	16.G/	.	(16B-/	.	16.g/	.	.	.	.	.	.	.	.	.	.	.	.	.	.	.	.	.	.	.	.	.	.	.	.	.
.	.	.	.	16e-/JJ)	.	.	.	.	.	.	.	.	.	.	.	.	.	.	.	.	.	.	.	.	.	.	.	.	.	.	.
.	.	32E-/JJk)	.	.	.	32e-/JJk	.	.	.	.	.	.	.	.	.	.	.	.	.	.	.	.	.	.	.	.	.	.	.	.	.
.	.	.	.	.	.	.	.	.	.	.	.	.	.	.	.	.	.	.	.	16qqff/LL	.	.	.	.	.	.	.	.	.	.	.
.	.	.	.	.	.	.	.	.	.	.	.	.	.	.	.	.	.	.	.	16qqee-/JJ	.	.	.	.	.	.	.	.	.	.	.
!	!	!LO:LB:g=original	!	!	!	!	!	!	!	!	!	!	!	!	!	!	!	!	!	!	!	!	!	!	!	!	!	!	!	!	!
=16	=16	=16	=16	=16	=16	=16	=16	=16	=16	=16	=16	=16	=16	=16	=16	=16	=16	=16	=16	=16	=16	=16	=16	=16	=16	=16	=16	=16	=16	=16	=16
.	.	.	.	.	.	.	.	.	.	.	.	.	.	.	.	.	.	.	.	.	.	.	.	.	.	.	.	.	.	16qqff/LL	.
.	.	.	.	.	.	.	.	.	.	.	.	.	.	.	.	.	.	.	.	.	.	.	.	.	.	.	.	.	.	16qqee-/JJ	.
8BB-/L	.	16.A-X/LL	.	(16B-/LL	.	16.a-X/LL	.	4BB-/	mi-	con-	.	4B-\	mi-	vi-	.	4a-\	mi-	tol-	.	4dd\	mi-	per-	.	2BB-/	.	2B-/	.	4a-/	.	4dd\	.
.	.	.	.	16d/)	.	.	.	.	.	.	.	.	.	.	.	.	.	.	.	.	.	.	.	.	.	.	.	.	.	.	.
.	.	32F/K	.	.	.	32f/K	.	.	.	.	.	.	.	.	.	.	.	.	.	.	.	.	.	.	.	.	.	.	.	.	.
8D/	.	16A-'/	.	(16B-/	.	16a-/	.	.	.	.	.	.	.	.	.	.	.	.	.	.	.	.	.	.	.	.	.	.	.	.	.
.	.	16A-'/JJ	.	16d/JJ)	.	16a-/JJ	.	.	.	.	.	.	.	.	.	.	.	.	.	.	.	.	.	.	.	.	.	.	.	.	.
!	!	!	!	!LO:LB:g=original	!	!	!	!	!	!	!	!	!	!	!	!	!	!	!	!	!	!	!	!	!	!	!	!	!	!	!
8BB-/	.	(16G/LL	.	(16B-/LL	.	(16g/LL	.	4E-\	-se-	-si-	.	4B-\	-se-	-ri	.	4g\	-se-	.	.	4ee-\	-se-	.	.	.	.	.	.	4g/	.	4ee-\	.
.	.	16B-/	.	16e-/)	.	16b-/	.	.	.	.	.	.	.	.	.	.	.	.	.	.	.	.	.	.	.	.	.	.	.	.	.
8E-/J	.	16d/	.	(16B-/	.	16dd/	.	.	.	.	.	.	.	.	.	.	.	.	.	.	.	.	.	.	.	.	.	.	.	.	.
.	.	16e-/JJ)	.	16e-/JJ)	.	16ee-/JJ)	.	.	.	.	.	.	.	.	.	.	.	.	.	.	.	.	.	.	.	.	.	.	.	.	.
!LO:TX:t=P:problem:mixed beam	!	!	!	!	!	!	!	!	!	!	!	!	!	!	!	!	!	!	!	!	!	!	!	!	!	!	!	!	!	!	!
16BB-/LL	.	(16a-\LL	.	(16B-/LL	.	(16aa-\LL	.	4D\	-re-	-de-	.	4B-\	-re-	Ju-	.	4f\	-re-	-lun-	.	4aa-\	-re-	-ci-	.	2BB-/	.	2B-/	.	4f/	.	4aa-\	.
16F\	.	16f\	.	16f/)	.	16ff\	.	.	.	.	.	.	.	.	.	.	.	.	.	.	.	.	.	.	.	.	.	.	.	.	.
16D\	.	16d\	.	(16B-/	.	16dd\	.	.	.	.	.	.	.	.	.	.	.	.	.	.	.	.	.	.	.	.	.	.	.	.	.
16BB-\JJ	.	16A-\JJ)	.	16f/JJ)	.	16a-\JJ)	.	.	.	.	.	.	.	.	.	.	.	.	.	.	.	.	.	.	.	.	.	.	.	.	.
!LO:TX:t=P:problem:mixed beam	!	!	!	!	!	!	!	!	!	!	!	!	!	!	!	!	!	!	!	!	!	!	!	!	!	!	!	!	!	!	!
8E-\L	.	16.G/LL	.	(16B-/LL	.	16.g/LL	.	4E-\	-re	-rat	.	4B-\	-re	-sti	.	4e-\	-re	-tur	.	4gg\	-re	-pit	.	.	.	.	.	4e-/	.	4gg\	.
.	.	.	.	16e-/)	.	.	.	.	.	.	.	.	.	.	.	.	.	.	.	.	.	.	.	.	.	.	.	.	.	.	.
.	.	32B-/K	.	.	.	32b-/K	.	.	.	.	.	.	.	.	.	.	.	.	.	.	.	.	.	.	.	.	.	.	.	.	.
8EE-/J	.	16.G/	.	(16B-/	.	16.g/	.	.	.	.	.	.	.	.	.	.	.	.	.	.	.	.	.	.	.	.	.	.	.	.	.
.	.	.	.	16e-/JJ)	.	.	.	.	.	.	.	.	.	.	.	.	.	.	.	.	.	.	.	.	.	.	.	.	.	.	.
.	.	32E-/JJk	.	.	.	32e-/JJk	.	.	.	.	.	.	.	.	.	.	.	.	.	.	.	.	.	.	.	.	.	.	.	.	.
=17	=17	=17	=17	=17	=17	=17	=17	=17	=17	=17	=17	=17	=17	=17	=17	=17	=17	=17	=17	=17	=17	=17	=17	=17	=17	=17	=17	=17	=17	=17	=17
8r	.	16r	.	16r	.	16r	.	2A-\	me-	a	.	2e-\	me-	tol-	.	2a-\	me-	et	.	2cc\	me-	Cor-	.	2r	.	2r	.	8.a-/L	.	8.cc\L	.
.	.	16e-'\LL	.	16a-'/LL	.	(16cc\LL	.	.	.	.	.	.	.	.	.	.	.	.	.	.	.	.	.	.	.	.	.	.	.	.	.
8A-\L	.	16e-'\	.	16a-'/	.	16bn\	.	.	.	.	.	.	.	.	.	.	.	.	.	.	.	.	.	.	.	.	.	.	.	.	.
.	.	.	.	.	.	32qqdd/	.	.	.	.	.	.	.	.	.	.	.	.	.	.	.	.	.	.	.	.	.	.	.	.	.
.	.	16e-'\JJ	.	16a-'/JJ	.	16cc\JJ)	.	.	.	.	.	.	.	.	.	.	.	.	.	.	.	.	.	.	.	.	.	16a-/K	.	16cc\K	.
*	*	*tremolo	*	*	*	*	*	*	*	*	*	*	*	*	*	*	*	*	*	*	*	*	*	*	*	*	*	*	*	*	*
!	!	!LO:TX:a:t=....	!	!	!	!	!	!	!	!	!	!	!	!	!	!	!	!	!	!	!	!	!	!	!	!	!	!	!	!	!
8A-\	.	16e-\LL	.	16a-'/LL	.	(16b\LL	.	.	.	.	.	.	.	.	.	.	.	.	.	.	.	.	.	.	.	.	.	8a-/	.	8cc\	.
.	.	.	.	.	.	32qqdd/	.	.	.	.	.	.	.	.	.	.	.	.	.	.	.	.	.	.	.	.	.	.	.	.	.
.	.	16e-\	.	16a-'/	.	16cc\	.	.	.	.	.	.	.	.	.	.	.	.	.	.	.	.	.	.	.	.	.	.	.	.	.
8A-\J	.	16e-\	.	16a-'/	.	16b\	.	.	.	.	.	.	.	.	.	.	.	.	.	.	.	.	.	.	.	.	.	8a-/J	.	8cc\J	.
.	.	.	.	.	.	32qqdd/	.	.	.	.	.	.	.	.	.	.	.	.	.	.	.	.	.	.	.	.	.	.	.	.	.
.	.	16e-\JJ	.	16a-'/JJ	.	16cc\JJ)	.	.	.	.	.	.	.	.	.	.	.	.	.	.	.	.	.	.	.	.	.	.	.	.	.
*	*	*Xtremolo	*	*	*	*	*	*	*	*	*	*	*	*	*	*	*	*	*	*	*	*	*	*	*	*	*	*	*	*	*
8r	.	16r	.	16r	.	16r	.	2F\	-i	fa-	.	2f\	-i	.	.	2a-\	-i	ne-	.	2dd\	-i	-de	.	8.f\L	.	8.a-\L	.	8.a-/L	.	8.dd\L	.
.	.	16f'\LL	.	16a-'/LL	.	(16dd\LL	.	.	.	.	.	.	.	.	.	.	.	.	.	.	.	.	.	.	.	.	.	.	.	.	.
8F\L	.	16f'\	.	16a-'/	.	16cc\	.	.	.	.	.	.	.	.	.	.	.	.	.	.	.	.	.	.	.	.	.	.	.	.	.
.	.	.	.	.	.	32qqee-/	.	.	.	.	.	.	.	.	.	.	.	.	.	.	.	.	.	.	.	.	.	.	.	.	.
.	.	16f'\JJ	.	16a-'/JJ	.	16dd\JJ)	.	.	.	.	.	.	.	.	.	.	.	.	.	.	.	.	.	16f\K	.	16a-\K	.	16a-/K	.	16dd\Jk	.
*	*	*tremolo	*	*	*	*	*	*	*	*	*	*	*	*	*	*	*	*	*	*	*	*	*	*	*	*	*	*	*	*	*
!	!	!LO:TX:a:t=....	!	!	!	!	!	!	!	!	!	!	!	!	!	!	!	!	!	!	!	!	!	!	!	!	!	!	!	!	!
8F\	.	16f\LL	.	16a-'/LL	.	(16cc\LL	.	.	.	.	.	.	.	.	.	.	.	.	.	.	.	.	.	8f\	.	8a-\	.	8a-/	.	16ee-\LL	.
.	.	.	.	.	.	32qqee-/	.	.	.	.	.	.	.	.	.	.	.	.	.	.	.	.	.	.	.	.	.	.	.	.	.
.	.	16f\	.	16a-'/	.	16dd\	.	.	.	.	.	.	.	.	.	.	.	.	.	.	.	.	.	.	.	.	.	.	.	16dd\	.
8F\J	.	16f\	.	16a-'/	.	16cc\	.	.	.	.	.	.	.	.	.	.	.	.	.	.	.	.	.	8f\J	.	8a-\J	.	8a-/J	.	16cc\	.
.	.	.	.	.	.	32qqee-/	.	.	.	.	.	.	.	.	.	.	.	.	.	.	.	.	.	.	.	.	.	.	.	.	.
.	.	16f\JJ	.	16a-'/JJ	.	16dd\JJ)	.	.	.	.	.	.	.	.	.	.	.	.	.	.	.	.	.	.	.	.	.	.	.	16dd\JJ	.
*	*	*Xtremolo	*	*	*	*	*	*	*	*	*	*	*	*	*	*	*	*	*	*	*	*	*	*	*	*	*	*	*	*	*
=18	=18	=18	=18	=18	=18	=18	=18	=18	=18	=18	=18	=18	=18	=18	=18	=18	=18	=18	=18	=18	=18	=18	=18	=18	=18	=18	=18	=18	=18	=18	=18
8r	.	16e-\LL	.	(16g/LL	.	(16ee-\LL	.	(4G\	De-	-ci-	.	(4e-\	De-	.	.	(4g\	De-	-mo	.	4ee-\	De-	Vi-	.	4e-\	.	4g\	.	4g/	.	4ee-\	.
.	.	16B-\JJ	.	16g/JJ)	.	16b-\JJ)	.	.	.	.	.	.	.	.	.	.	.	.	.	.	.	.	.	.	.	.	.	.	.	.	.
8E-\	.	16r	.	16r	.	16r	.	.	.	.	.	.	.	.	.	.	.	.	.	.	.	.	.	.	.	.	.	.	.	.	.
.	.	16c\	.	16g/	.	16bn\|	.	.	.	.	.	.	.	.	.	.	.	.	.	.	.	.	.	.	.	.	.	.	.	.	.
8r	.	16c\LL	.	(16a-/LL	.	(16cc\LL	.	4A-\	.	.	.	4c\)	.	.	.	4f\	.	con-	.	(4a-\	.	-ri	.	4r	.	4r	.	4ff\	.	4aa-\	.
.	.	16c\JJ	.	16f/JJ)	.	16a-\JJ)	.	.	.	.	.	.	.	.	.	.	.	.	.	.	.	.	.	.	.	.	.	.	.	.	.
8A-\	.	16r	.	16r	.	16r	.	.	.	.	.	.	.	.	.	.	.	.	.	.	.	.	.	.	.	.	.	.	.	.	.
.	.	16B-/	.	16f/	.	16a-/	.	.	.	.	.	.	.	.	.	.	.	.	.	.	.	.	.	.	.	.	.	.	.	.	.
16r	.	16.B-/LL	.	16.e-/LL	.	16.g/LL	.	4B-\	.	.	.	2B-\	.	-lun-	.	4e-\	.	-si-	.	4g\)	.	.	.	4e-\	.	4g\	.	4ee-\	.	4gg\	.
16B-\LL	.	.	.	.	.	.	.	.	.	.	.	.	.	.	.	.	.	.	.	.	.	.	.	.	.	.	.	.	.	.	.
!	!	!	!	!	!	!LO:SIC:v:s=32b-/K	!	!	!	!	!	!	!	!	!	!	!	!	!	!	!	!	!	!	!	!	!	!	!	!	!
.	.	32B-/K	.	32e-/K	.	32b/K	.	.	.	.	.	.	.	.	.	.	.	.	.	.	.	.	.	.	.	.	.	.	.	.	.
16B-\	.	16.B-/	.	16.g/	.	16.e-/	.	.	.	.	.	.	.	.	.	.	.	.	.	.	.	.	.	.	.	.	.	.	.	.	.
16B-\JJ	.	.	.	.	.	.	.	.	.	.	.	.	.	.	.	.	.	.	.	.	.	.	.	.	.	.	.	.	.	.	.
.	.	32B-/JJk	.	32e-/JJk	.	32g/JJk	.	.	.	.	.	.	.	.	.	.	.	.	.	.	.	.	.	.	.	.	.	.	.	.	.
!	!	!	!	!	!	!LO:LB:g=original	!	!	!	!	!	!	!	!	!	!	!	!	!	!	!	!	!	!	!	!	!	!	!	!	!
16BB-/LL	.	16.B-/LL	.	16.d/LL	.	16.f/LL	.	4BB-/)	.	.	.	.	.	.	.	4B-/)	.	-de-	.	4f/	.	ju-	.	4B-/	.	4f\	.	4b-\	.	4ff\	.
16BB-/	.	.	.	.	.	.	.	.	.	.	.	.	.	.	.	.	.	.	.	.	.	.	.	.	.	.	.	.	.	.	.
.	.	32B-/K	.	32d/K	.	32a-/K	.	.	.	.	.	.	.	.	.	.	.	.	.	.	.	.	.	.	.	.	.	.	.	.	.
16BB-/	.	16.B-/	.	16.f/	.	16.d/	.	.	.	.	.	.	.	.	.	.	.	.	.	.	.	.	.	.	.	.	.	.	.	.	.
16BB-/JJ	.	.	.	.	.	.	.	.	.	.	.	.	.	.	.	.	.	.	.	.	.	.	.	.	.	.	.	.	.	.	.
.	.	32B-/JJk	.	32d/JJk	.	32f/JJk	.	.	.	.	.	.	.	.	.	.	.	.	.	.	.	.	.	.	.	.	.	.	.	.	.
=19	=19	=19	=19	=19	=19	=19	=19	=19	=19	=19	=19	=19	=19	=19	=19	=19	=19	=19	=19	=19	=19	=19	=19	=19	=19	=19	=19	=19	=19	=19	=19
.	.	.	.	.	.	.	.	.	.	.	.	.	.	.	.	.	.	.	.	8qqf/	.	.	.	.	.	.	.	.	.	.	.
*	*	*	*	*	*	*	*	*	*	*	*	*	*	*	*	*	*	*	*	*	*	*	*	*	*	*tremolo	*	*	*	*	*
8E-\L	.	8B-/L	.	8b-L 8e-/	.	8e-L 8G/	.	4E-\	-us	-e	.	4B-\	-us	-tur	.	4G/	-us	-rat	.	4e-/	-us	-sti	.	8G/L	.	8e-\L	.	8g/L	.	8ee-\L	.
8E-\	.	8B-/	.	8b- 8e-/	.	8e- 8G/	.	.	.	.	.	.	.	.	.	.	.	.	.	.	.	.	.	8G/	.	8e-\	.	8g/	.	8ee-\	.
8E-\	.	8B-/	.	8b- 8e-/	.	8e- 8G/	.	4r	.	.	.	4r	.	.	.	4r	.	.	.	4r	.	.	.	8G/	.	8e-\	.	8g/	.	8ee-\	.
8E-\J	.	8B-/J	.	8b-J 8e-/	.	8e-J 8G/	.	.	.	.	.	.	.	.	.	.	.	.	.	.	.	.	.	8G/J	.	8e-\J	.	8g/J	.	8ee-\J	.
*	*	*	*	*	*	*	*	*	*	*	*	*	*	*	*	*	*	*	*	*	*	*	*	*	*	*Xtremolo	*	*	*	*	*
4E-\	.	4B-/	.	4b- 4e-/	.	4e- 4G/	.	2r	.	.	.	2r	.	.	.	2r	.	.	.	2r	.	.	.	4G/	.	4e-\	.	4g/	.	4ee-\	.
!	!	!LO:LB:g=original	!	!	!	!	!	!	!	!	!	!	!	!	!	!	!	!	!	!	!	!	!	!	!	!	!	!	!	!	!
4r	.	4r	.	4r	.	4r	.	.	.	.	.	.	.	.	.	.	.	.	.	.	.	.	.	4r	.	4r	.	4r	.	4r	.
!	!	!	!	!	!	!	!	!	!	!	!	!	!	!	!	!LO:LB:g=original	!	!	!	!	!	!	!	!	!	!	!	!	!	!	!
=20	=20	=20	=20	=20	=20	=20	=20	=20	=20	=20	=20	=20	=20	=20	=20	=20	=20	=20	=20	=20	=20	=20	=20	=20	=20	=20	=20	=20	=20	=20	=20
!	!	!	!	!	!	!	!LO:DY:t=pp&colon;	!	!	!	!	!	!	!	!LO:DY:a	!	!	!	!LO:DY:a:t=p&colon;:rj	!	!	!	!LO:DY:a:t=pia	!LO:TX:a:t=8	!	!LO:TX:a:t=8	!	!LO:TX:a:t=8	!	!LO:TX:a:t=8	!
8C/	p	16r	.	16r	pp	16r	pp	[4C/	Se-	i-	p	2G/	Et_Se-	et	p	4e-\	Et	a	p	4cc\	Et	et	p	00r	.	00r	.	00r	.	00r	.
.	.	16g'\LL	pp	16e-'/LL	.	(16cc'\LL	.	.	.	.	.	.	.	.	.	.	.	.	.	.	.	.	.	.	.	.	.	.	.	.	.
8r	.	16g'\	.	16e-'/	.	16cc'\	.	.	.	.	.	.	.	.	.	.	.	.	.	.	.	.	.	.	.	.	.	.	.	.	.
.	.	16g'\JJ	.	16e-'/JJ	.	16cc'\JJ)	.	.	.	.	.	.	.	.	.	.	.	.	.	.	.	.	.	.	.	.	.	.	.	.	.
.	.	.	.	.	.	.	.	.	.	.	.	.	.	.	.	.	.	.	.	16qqdd\LL	.	.	.	.	.	.	.	.	.	.	.
.	.	.	.	.	.	.	.	.	.	.	.	.	.	.	.	.	.	.	.	16qqee-\JJ	.	.	.	.	.	.	.	.	.	.	.
!	!	!	!	!LO:LB:g=original	!	!	!	!	!	!	!	!	!	!	!	!	!	!	!	!	!	!	!	!	!	!	!	!	!	!	!
8C/	.	16r	.	16r	.	16r	.	8C/L]	.	.	.	.	.	.	.	8g\L	Se-	fa-	.	8ee-\L	Se-	.	.	.	.	.	.	.	.	.	.
.	.	16g'\LL	.	16e-'/LL	.	(16cc'\LL	.	.	.	.	.	.	.	.	.	.	.	.	.	.	.	.	.	.	.	.	.	.	.	.	.
8r	.	16g'\	.	16e-'/	.	16cc'\	.	8E-/J	.	.	.	.	.	.	.	8e-\J	.	.	.	8cc\J	.	.	.	.	.	.	.	.	.	.	.
.	.	16g'\JJ	.	16e-'/JJ	.	16cc'\JJ)	.	.	.	.	.	.	.	.	.	.	.	.	.	.	.	.	.	.	.	.	.	.	.	.	.
!	!	!	!	!	!	!	!	!	!	!	!	!	!	!	!	!	!	!	!	!LO:LB:g=original	!	!	!	!	!	!	!	!	!	!	!
8G\	.	16r	.	16r	.	16r	.	4G\	-cun-	-ni-	.	4G/	-cun-	ne-	.	4e-\	-cun-	-ci-	.	4cc\	-cun-	ne-	.	.	.	.	.	.	.	.	.
.	.	16g'\LL	.	16e-'/LL	.	(16cc'\LL	.	.	.	.	.	.	.	.	.	.	.	.	.	.	.	.	.	.	.	.	.	.	.	.	.
8r	.	16g'\	.	16e-'/	.	16cc'\	.	.	.	.	.	.	.	.	.	.	.	.	.	.	.	.	.	.	.	.	.	.	.	.	.
.	.	16g'\JJ	.	16e-'/JJ	.	16cc'\JJ)	.	.	.	.	.	.	.	.	.	.	.	.	.	.	.	.	.	.	.	.	.	.	.	.	.
8GG/	.	16r	.	16r	.	16r	.	4GG/	-dum	-qvi-	.	4G/	-dum	-mo	.	4d\	-dum	-e	.	4bn\	-dum	-mo.	.	.	.	.	.	.	.	.	.
.	.	16g'\LL	.	16d'/LL	.	(16bn'\LL	.	.	.	.	.	.	.	.	.	.	.	.	.	.	.	.	.	.	.	.	.	.	.	.	.
8r	.	16g'\	.	16d'/	.	16b'\	.	.	.	.	.	.	.	.	.	.	.	.	.	.	.	.	.	.	.	.	.	.	.	.	.
.	.	16g'\JJ	.	16d'/JJ	.	16b'\JJ)	.	.	.	.	.	.	.	.	.	.	.	.	.	.	.	.	.	.	.	.	.	.	.	.	.
!LO:LB:g=original	!	!	!	!	!	!	!	!	!	!	!	!	!	!	!	!	!	!	!	!	!	!	!	!	!	!	!	!	!	!	!
=21	=21	=21	=21	=21	=21	=21	=21	=21	=21	=21	=21	=21	=21	=21	=21	=21	=21	=21	=21	=21	=21	=21	=21	=21	=21	=21	=21	=21	=21	=21	=21
*	*	*	*	*	*	*	*	*	*ij	*	*	*	*	*	*	*	*	*	*	*	*	*	*	*	*	*	*	*	*	*	*
8GG/	.	16r	.	16r	.	16r	.	4G\	Se-	-ta-	.	2Bn/	Se-	con-	.	2f\	se-	vi-	.	2dd\	se-	et	.	.	.	.	.	.	.	.	.
.	.	16bn'\LL	.	16f'/LL	.	(16dd'\LL	.	.	.	.	.	.	.	.	.	.	.	.	.	.	.	.	.	.	.	.	.	.	.	.	.
8r	.	16b'\	.	16f'/	.	16dd'\	.	.	.	.	.	.	.	.	.	.	.	.	.	.	.	.	.	.	.	.	.	.	.	.	.
.	.	16b'\JJ	.	16f'/JJ	.	16dd'\JJ)	.	.	.	.	.	.	.	.	.	.	.	.	.	.	.	.	.	.	.	.	.	.	.	.	.
!	!	!	!	!	!	!	!	!LO:SIC:v:s=8Bn\L	!	!	!	!	!	!	!	!	!	!	!	!	!	!	!	!	!	!	!	!	!	!	!
8G\	.	16r	.	16r	.	16r	.	8B-\L	.	.	.	.	.	.	.	.	.	.	.	.	.	.	.	.	.	.	.	.	.	.	.
.	.	16g'\LL	.	16f'/LL	.	(16dd'\LL	.	.	.	.	.	.	.	.	.	.	.	.	.	.	.	.	.	.	.	.	.	.	.	.	.
8r	.	16b'\	.	16f'/	.	16dd'\	.	8G\J	.	.	.	.	.	.	.	.	.	.	.	.	.	.	.	.	.	.	.	.	.	.	.
.	.	16b'\JJ	.	16f'/JJ	.	16dd'\JJ)	.	.	.	.	.	.	.	.	.	.	.	.	.	.	.	.	.	.	.	.	.	.	.	.	.
8C/	.	16r	.	16r	.	16r	.	4c\	-cun-	.	.	4G/	-cun-	.	.	4f\	-cun-	-ri	.	4dd\	-cun-	ne-	.	.	.	.	.	.	.	.	.
.	.	16g'\LL	.	16f'/LL	.	(16dd'\LL	.	.	.	.	.	.	.	.	.	.	.	.	.	.	.	.	.	.	.	.	.	.	.	.	.
8r	.	16g'\	.	16f'/	.	16dd'\	.	.	.	.	.	.	.	.	.	.	.	.	.	.	.	.	.	.	.	.	.	.	.	.	.
.	.	16g'\JJ	.	16f'/JJ	.	16dd'\JJ)	.	.	.	.	.	.	.	.	.	.	.	.	.	.	.	.	.	.	.	.	.	.	.	.	.
8C/	.	16r	.	16r	.	16r	.	4C/	-dum	-tis.	.	4G/	-dum	-si-	.	4e-\	-dum	Jus-	.	4cc\	-dum	-mo	.	.	.	.	.	.	.	.	.
*	*	*	*	*	*	*	*	*	*Xij	*	*	*	*	*	*	*	*	*	*	*	*	*	*	*	*	*	*	*	*	*	*
.	.	16g'\LL	.	16e-'/LL	.	(16cc'\LL	.	.	.	.	.	.	.	.	.	.	.	.	.	.	.	.	.	.	.	.	.	.	.	.	.
8r	.	16g'\	.	16e-'/	.	16cc'\	.	.	.	.	.	.	.	.	.	.	.	.	.	.	.	.	.	.	.	.	.	.	.	.	.
.	.	16g'\JJ	.	16e-'/JJ	.	16cc'\JJ)	.	.	.	.	.	.	.	.	.	.	.	.	.	.	.	.	.	.	.	.	.	.	.	.	.
!	!	!	!	!	!	!	!	!LO:LB:g=original	!	!	!	!	!	!	!	!	!	!	!	!	!	!	!	!	!	!	!	!	!	!	!
=22	=22	=22	=22	=22	=22	=22	=22	=22	=22	=22	=22	=22	=22	=22	=22	=22	=22	=22	=22	=22	=22	=22	=22	=22	=22	=22	=22	=22	=22	=22	=22
8C/	.	16r	.	16r	.	16r	.	4C/	ma-	Sub-	.	2G/	ma-	-de-	.	4g\	ma-	-ti	.	4ee-\	ma-	Con-	.	.	.	.	.	.	.	.	.
.	.	16e-'\LL	.	16g'/LL	.	(16ee-'\LL	.	.	.	.	.	.	.	.	.	.	.	.	.	.	.	.	.	.	.	.	.	.	.	.	.
8r	.	16e-'\	.	16g'/	.	16ee-'\	.	.	.	.	.	.	.	.	.	.	.	.	.	.	.	.	.	.	.	.	.	.	.	.	.
.	.	16e-'\JJ	.	16g'/JJ	.	16ee-'\JJ)	.	.	.	.	.	.	.	.	.	.	.	.	.	.	.	.	.	.	.	.	.	.	.	.	.
8F\L	.	16r	.	16r	.	16r	.	8F\L	.	.	.	.	.	.	.	8f\L	.	i-	.	8dd\L	.	.	.	.	.	.	.	.	.	.	.
.	.	16g'\	.	16f'/	.	16dd'\	.	.	.	.	.	.	.	.	.	.	.	.	.	.	.	.	.	.	.	.	.	.	.	.	.
8F#X\J	.	16r	.	16r	.	16r	.	8F#X\J	.	.	.	.	.	.	.	8e-\J	.	.	.	8cc\J	.	.	.	.	.	.	.	.	.	.	.
.	.	16g'\	.	16e-'/	.	16cc'\	.	.	.	.	.	.	.	.	.	.	.	.	.	.	.	.	.	.	.	.	.	.	.	.	.
!	!	!	!	!	!	!LO:LB:g=original	!	!	!	!	!	!	!	!	!	!	!	!	!	!	!	!	!	!	!	!	!	!	!	!	!
8G\	.	16r	.	16r	.	16r	.	4G\	-gnam	-la-	.	4G/	-gn(am)	-rat,	.	4d\	-gnam	-ni-	.	4bn\	-gnam	.	.	.	.	.	.	.	.	.	.
.	.	16g'\LL	.	16d'/LL	.	(16bn'\LL	.	.	.	.	.	.	.	.	.	.	.	.	.	.	.	.	.	.	.	.	.	.	.	.	.
8r	.	16g'\	.	16d'/	.	16b'\	.	.	.	.	.	.	.	.	.	.	.	.	.	.	.	.	.	.	.	.	.	.	.	.	.
.	.	16g'\JJ	.	16d'/JJ	.	16b'\JJ)	.	.	.	.	.	.	.	.	.	.	.	.	.	.	.	.	.	.	.	.	.	.	.	.	.
8C/	.	16r	.	16r	.	16r	.	4C/	Mi-	-tus	.	4G/	mi-	a	.	4e-\	mi-	-qvi-	.	4cc\	mi-	-si-	.	.	.	.	.	.	.	.	.
.	.	16g'\LL	.	16e-'/LL	.	(16cc'\LL	.	.	.	.	.	.	.	.	.	.	.	.	.	.	.	.	.	.	.	.	.	.	.	.	.
8r	.	16g'\	.	16e-'/	.	16cc'\	.	.	.	.	.	.	.	.	.	.	.	.	.	.	.	.	.	.	.	.	.	.	.	.	.
.	.	16g'\JJ	.	16e-'/JJ	.	16cc'\JJ)	.	.	.	.	.	.	.	.	.	.	.	.	.	.	.	.	.	.	.	.	.	.	.	.	.
=23	=23	=23	=23	=23	=23	=23	=23	=23	=23	=23	=23	=23	=23	=23	=23	=23	=23	=23	=23	=23	=23	=23	=23	=23	=23	=23	=23	=23	=23	=23	=23
8G\	.	16r	.	16r	.	16r	.	4G\	-se-	est	.	4G/	-se-	fa-	.	4e-\	-se-	-ta-	.	4cc\	-se-	-de-	.	.	.	.	.	.	.	.	.
.	.	16g'\LL	.	16e-'/LL	.	(16cc'\LL	.	.	.	.	.	.	.	.	.	.	.	.	.	.	.	.	.	.	.	.	.	.	.	.	.
8r	.	16g'\	.	16e-'/	.	16cc'\	.	.	.	.	.	.	.	.	.	.	.	.	.	.	.	.	.	.	.	.	.	.	.	.	.
.	.	16g'\JJ	.	16e-'/JJ	.	16cc'\JJ)	.	.	.	.	.	.	.	.	.	.	.	.	.	.	.	.	.	.	.	.	.	.	.	.	.
!	!	!LO:LB:g=original	!	!	!	!	!	!	!	!	!	!	!	!	!	!	!	!	!	!	!	!	!	!	!	!	!	!	!	!	!
8GG/	.	16r	.	16r	.	16r	.	4G\	-ri-	Ju-	.	4G/	-ri-	-ci-	.	4d\	-ri-	-tis	.	4bn\	-ri-	.	.	.	.	.	.	.	.	.	.
!	!	!	!	!	!	!LO:SIC:v:s=(16bn'\LL	!	!	!	!	!	!	!	!	!	!	!	!	!	!	!	!	!	!	!	!	!	!	!	!	!
.	.	16g'\LL	.	16d'/LL	.	(16b-'\LL	.	.	.	.	.	.	.	.	.	.	.	.	.	.	.	.	.	.	.	.	.	.	.	.	.
!	!	!	!	!	!	!LO:SIC:v:s=16b'\	!	!	!	!	!	!	!	!	!	!	!	!	!	!	!	!	!	!	!	!	!	!	!	!	!
8r	.	16g'\	.	16d'/	.	16b-'\	.	.	.	.	.	.	.	.	.	.	.	.	.	.	.	.	.	.	.	.	.	.	.	.	.
!	!	!	!	!	!	!LO:SIC:v:s=16b'\JJ)	!	!	!	!	!	!	!	!	!	!	!	!	!	!	!	!	!	!	!	!	!	!	!	!	!
.	.	16g'\JJ	.	16d'/JJ	.	16b-'\JJ)	.	.	.	.	.	.	.	.	.	.	.	.	.	.	.	.	.	.	.	.	.	.	.	.	.
8C/	.	16r	.	16r	.	16r	.	4C/	-cor-	-stus	.	4G/	-cor-	-e	.	4e-\	-cor-	a	.	4cc\	-cor-	-rat	.	.	.	.	.	.	.	.	.
.	.	16g\LL	.	16e-'/LL	.	(16cc'\LL	.	.	.	.	.	.	.	.	.	.	.	.	.	.	.	.	.	.	.	.	.	.	.	.	.
8r	.	16g\	.	16e-'/	.	16cc'\	.	.	.	.	.	.	.	.	.	.	.	.	.	.	.	.	.	.	.	.	.	.	.	.	.
.	.	16g\JJ	.	16e-'/JJ	.	16cc'\JJ)	.	.	.	.	.	.	.	.	.	.	.	.	.	.	.	.	.	.	.	.	.	.	.	.	.
!	!	!	!	!LO:LB:g=original	!	!	!	!	!	!	!	!	!	!	!	!	!	!	!	!	!	!	!	!	!	!	!	!	!	!	!
8E-\	.	16r	.	16r	.	16r	.	8E-\	-di-	a	.	8e-\	-di-	tu-	.	8g\	-di-	fa-	.	8ee-\	-di-	a	.	.	.	.	.	.	.	.	.
!	!	!LO:SIC:v:s=16bn'\LL	!	!	!	!	!	!	!	!	!	!	!	!	!	!	!	!	!	!	!	!	!	!	!	!	!	!	!	!	!
.	.	16an'\LL	.	16g'/LL	.	(16ee-'\LL	.	.	.	.	.	.	.	.	.	.	.	.	.	.	.	.	.	.	.	.	.	.	.	.	.
!	!	!LO:SIC:v:s=16b'\	!	!	!	!	!	!	!	!	!	!	!	!	!	!	!	!	!	!	!	!	!	!	!	!	!	!	!	!	!
8r	.	16a'\	.	16g'/	.	16ee-'\	.	8E-\	-am	fa-	.	8e-\	-am	-a	.	8g\	-am	-ci-	.	8ee-\	-am	fa-	.	.	.	.	.	.	.	.	.
!	!	!LO:SIC:v:s=16b'\JJ	!	!	!	!	!	!	!	!	!	!	!	!	!	!	!	!	!	!	!	!	!	!	!	!	!	!	!	!	!
.	.	16a'\JJ	.	16g'/JJ	.	16ee-'\JJ)	.	.	.	.	.	.	.	.	.	.	.	.	.	.	.	.	.	.	.	.	.	.	.	.	.
!	!	!	!	!	!	!	!	!	!	!	!	!LO:LB:g=original	!	!	!	!	!	!	!	!	!	!	!	!	!	!	!	!	!	!	!
=24	=24	=24	=24	=24	=24	=24	=24	=24	=24	=24	=24	=24	=24	=24	=24	=24	=24	=24	=24	=24	=24	=24	=24	=24	=24	=24	=24	=24	=24	=24	=24
8D\L	.	16r	.	16r	.	16r	.	8D\L	tu-	-ci-	.	8d\L	tu-	sub-	.	8f\L	tu-	-e	.	8dd\L	tu-	-ci-	.	00r	.	00r	.	00r	.	00r	.
.	.	16b-\	.	16f'/	.	16dd'\	.	.	.	.	.	.	.	.	.	.	.	.	.	.	.	.	.	.	.	.	.	.	.	.	.
8E-\J	.	16r	.	16r	.	16r	.	8E-\J	.	.	.	8e-\J	.	.	.	8e-\J	.	.	.	8cc\J	.	.	.	.	.	.	.	.	.	.	.
.	.	16g\	.	16e-'/	.	16cc'\	.	.	.	.	.	.	.	.	.	.	.	.	.	.	.	.	.	.	.	.	.	.	.	.	.
8F\	.	16r	.	16r	.	16r	.	4F\	-am	.	.	4f\	-am	.	.	4d\	-am	.	.	4b-X\	-am	.	.	.	.	.	.	.	.	.	.
.	.	16f'\LL	.	16d'/LL	.	(16b-'\LL	.	.	.	.	.	.	.	.	.	.	.	.	.	.	.	.	.	.	.	.	.	.	.	.	.
8r	.	16f'\	.	16d'/	.	16b-'\	.	.	.	.	.	.	.	.	.	.	.	.	.	.	.	.	.	.	.	.	.	.	.	.	.
.	.	16f'\JJ	.	16d'/JJ	.	16b-'\JJ)	.	.	.	.	.	.	.	.	.	.	.	.	.	.	.	.	.	.	.	.	.	.	.	.	.
*	*	*	*	*	*	*	*	*	*	*	*	*	*ij	*	*	*	*ij	*	*	*	*	*	*	*	*	*	*	*	*	*	*
!	!	!	!	!	!	!	!	!	!	!	!	!	!	!	!	!	!	!	!	!LO:SIC:v:s=4an\	!	!	!	!	!	!	!	!	!	!	!
8FF/	.	16r	.	16r	.	16r	.	4FF/	tu-	.	.	4f\	tu-	-la-	.	4c\	tu-	tu-	.	4a-\	tu-	.	.	.	.	.	.	.	.	.	.
.	.	16f'\LL	.	16c'/LL	.	(16an'/LL	.	.	.	.	.	.	.	.	.	.	.	.	.	.	.	.	.	.	.	.	.	.	.	.	.
8r	.	16f'\	.	16c'/	.	16a'/	.	.	.	.	.	.	.	.	.	.	.	.	.	.	.	.	.	.	.	.	.	.	.	.	.
.	.	16f'\JJ	.	16c'/JJ	.	16a'/JJ)	.	.	.	.	.	.	.	.	.	.	.	.	.	.	.	.	.	.	.	.	.	.	.	.	.
8BB-/	.	16r	.	16r	.	16r	.	4BB-/	-am	-e	.	4f\	-am	-tus	.	4d\	-am	-a	.	4b-\	-am	-e	.	.	.	.	.	.	.	.	.
*	*	*	*	*	*	*	*	*	*	*	*	*	*Xij	*	*	*	*Xij	*	*	*	*	*	*	*	*	*	*	*	*	*	*
.	.	16f'\LL	.	16d'/LL	.	(16b-'\LL	.	.	.	.	.	.	.	.	.	.	.	.	.	.	.	.	.	.	.	.	.	.	.	.	.
8r	.	16f'\	.	16d'/	.	16b-'\	.	.	.	.	.	.	.	.	.	.	.	.	.	.	.	.	.	.	.	.	.	.	.	.	.
.	.	16f'\JJ	.	16d'/JJ	.	16b-'\JJ)	.	.	.	.	.	.	.	.	.	.	.	.	.	.	.	.	.	.	.	.	.	.	.	.	.
=25	=25	=25	=25	=25	=25	=25	=25	=25	=25	=25	=25	=25	=25	=25	=25	=25	=25	=25	=25	=25	=25	=25	=25	=25	=25	=25	=25	=25	=25	=25	=25
8BB-/	.	16r	.	16r	.	16r	.	(4BB-/	mi-	tu-	.	(4f\	mi-	est	.	(4a-X\	mi-	sub-	.	(4dd\	mi-	i-	.	.	.	.	.	.	.	.	.
.	.	16f'\LL	.	16a-X'/LL	.	(16dd'\LL	.	.	.	.	.	.	.	.	.	.	.	.	.	.	.	.	.	.	.	.	.	.	.	.	.
8r	.	16f'\	.	16a-'/	.	16dd'\	.	.	.	.	.	.	.	.	.	.	.	.	.	.	.	.	.	.	.	.	.	.	.	.	.
.	.	16f'\JJ	.	16a-'/JJ	.	16dd'\JJ)	.	.	.	.	.	.	.	.	.	.	.	.	.	.	.	.	.	.	.	.	.	.	.	.	.
8E-\	.	16r	.	16r	.	16r	.	4E-\)	.	.	.	4e-\)	.	.	.	4g\)	.	la-	.	4ee-\)	.	.	.	.	.	.	.	.	.	.	.
.	.	16e-'\LL	.	16g'/LL	.	(16ee-'\LL	.	.	.	.	.	.	.	.	.	.	.	.	.	.	.	.	.	.	.	.	.	.	.	.	.
8r	.	16e-'\	.	16g'/	.	16ee-'\	.	.	.	.	.	.	.	.	.	.	.	.	.	.	.	.	.	.	.	.	.	.	.	.	.
.	.	16e-'\JJ	.	16g'/JJ	.	16ee-'\JJ)	.	.	.	.	.	.	.	.	.	.	.	.	.	.	.	.	.	.	.	.	.	.	.	.	.
8D\	.	16r	.	16r	.	16r	.	4B-\	-se-	.	.	4d\	-se-	Ju-	.	4f\	-se-	-tus	.	4aa-X\	-se-	-ni-	.	.	.	.	.	.	.	.	.
.	.	16d'\LL	.	16a-'/LL	.	(16ff'\LL	.	.	.	.	.	.	.	.	.	.	.	.	.	.	.	.	.	.	.	.	.	.	.	.	.
8r	.	16d'\	.	16a-'/	.	16ff'\	.	.	.	.	.	.	.	.	.	.	.	.	.	.	.	.	.	.	.	.	.	.	.	.	.
.	.	16d'\JJ	.	16a-'/JJ	.	16ff'\JJ)	.	.	.	.	.	.	.	.	.	.	.	.	.	.	.	.	.	.	.	.	.	.	.	.	.
!	!	!	!	!	!	!LO:LB:g=original	!	!	!	!	!	!	!	!	!	!	!	!	!	!	!	!	!	!	!	!	!	!	!	!	!
8BB-/	.	16r	.	16r	.	16r	.	4BB-/	-ri-	.	.	4d\	-ri-	-stus	.	4f\	-ri-	est	.	4a-X\	-ri-	-qvi-	.	.	.	.	.	.	.	.	.
.	.	16d'\LL	.	16f'/LL	.	(16a-X'/LL	.	.	.	.	.	.	.	.	.	.	.	.	.	.	.	.	.	.	.	.	.	.	.	.	.
8r	.	16d'\	.	16f'/	.	16a-'/	.	.	.	.	.	.	.	.	.	.	.	.	.	.	.	.	.	.	.	.	.	.	.	.	.
.	.	16d'\JJ	.	16f'/JJ	.	16a-'/JJ)	.	.	.	.	.	.	.	.	.	.	.	.	.	.	.	.	.	.	.	.	.	.	.	.	.
=26	=26	=26	=26	=26	=26	=26	=26	=26	=26	=26	=26	=26	=26	=26	=26	=26	=26	=26	=26	=26	=26	=26	=26	=26	=26	=26	=26	=26	=26	=26	=26
!	!	!LO:TX:t=P:problem:mixed beam	!	!	!	!LO:TX:t=P:problem:mixed beam	!	!	!	!	!	!	!	!	!	!	!	!	!	!	!	!	!	!	!	!	!	!	!	!	!
8E-\	.	16e-\LL	.	(16e-/LL	.	16g/LL	.	4E-\	-Cor-	-a	.	4e-\	-cor-	in	.	4g\	-cor-	iu-	.	8g\L	-cor-	.	.	.	.	.	.	.	.	.	.
.	.	16G'/	.	16g/)	.	(16ee-'\	.	.	.	.	.	.	.	.	.	.	.	.	.	.	.	.	.	.	.	.	.	.	.	.	.
8r	.	16G'/	.	16g'/	.	16ee-'\	.	.	.	.	.	.	.	.	.	.	.	.	.	8ee-\J	.	.	.	.	.	.	.	.	.	.	.
.	.	16G'/JJ	.	16g'/JJ	.	16ee-'\JJ)	.	.	.	.	.	.	.	.	.	.	.	.	.	.	.	.	.	.	.	.	.	.	.	.	.
!	!	!	!	!	!	!	!	!LO:N:vis=16	!	!	!	!	!	!	!	!	!	!	!	!	!	!	!	!	!	!	!	!	!	!	!
8A-\	.	16r	.	16r	.	16r	.	8A-\	-di-	i-	.	4c\	-di-	.	.	8a-\	-di-	-stus	.	8cc\	-di-	.	.	.	.	.	.	.	.	.	.
!	!	!LO:TX:t=P:problem:mixed beam	!	!	!	!	!	!	!	!	!	!	!	!	!	!	!	!	!	!	!	!	!	!	!	!	!	!	!	!	!
.	.	16A-X'/LL	.	(16a-/LL	.	(16cc\LL	.	.	.	.	.	.	.	.	.	.	.	.	.	.	.	.	.	.	.	.	.	.	.	.	.
8r	.	16c'/	.	16f/)	.	16aa-\	.	8A-\	-am	-ni-	.	.	.	.	.	8a-\	-am	est	.	8ff\	-am	.	.	.	.	.	.	.	.	.	.
.	.	16cc'\JJ	.	16a-'/JJ	.	16ff\JJ)	.	.	.	.	.	.	.	.	.	.	.	.	.	.	.	.	.	.	.	.	.	.	.	.	.
!LO:LB:g=original	!	!	!	!	!	!	!	!	!	!	!	!	!	!	!	!	!	!	!	!LO:LB:g=original	!	!	!	!	!	!	!	!	!	!	!
8B-\	.	16r	.	16r	.	16r	.	4B-\	tu-	-qvi-	.	4B-\	-am	.	.	(4g\	tu-	iu-	.	(4ee-\	tu-	-ta-	.	.	.	.	.	.	.	.	.
.	.	16b-'\LL	.	16g'/LL	.	(16ee-'\LL	.	.	.	.	.	.	.	.	.	.	.	.	.	.	.	.	.	.	.	.	.	.	.	.	.
8r	.	16g'\	.	16g'/	.	16ee-'\	.	.	.	.	.	.	.	.	.	.	.	.	.	.	.	.	.	.	.	.	.	.	.	.	.
.	.	16e-'\JJ	.	16g'/JJ	.	16ee-'\JJ)	.	.	.	.	.	.	.	.	.	.	.	.	.	.	.	.	.	.	.	.	.	.	.	.	.
!	!	!LO:LB:g=original	!	!	!	!	!	!	!	!	!	!	!	!	!	!	!	!	!	!	!	!	!	!	!	!	!	!	!	!	!
8BB-/	.	16r	.	16r	.	16r	.	4BB-/	.	-ta-	.	4B-\	tu-	pa-	.	4f\)	.	.	.	4dd\)	.	.	.	.	.	.	.	.	.	.	.
.	.	16a-X\LL	.	16f'/LL	.	(16dd'\LL	.	.	.	.	.	.	.	.	.	.	.	.	.	.	.	.	.	.	.	.	.	.	.	.	.
8r	.	16f\	.	16f'/	.	16dd'\	.	.	.	.	.	.	.	.	.	.	.	.	.	.	.	.	.	.	.	.	.	.	.	.	.
.	.	16d\JJ	.	16f'/JJ	.	16dd'\JJ)	.	.	.	.	.	.	.	.	.	.	.	.	.	.	.	.	.	.	.	.	.	.	.	.	.
!	!	!	!	!LO:LB:g=original	!	!	!	!	!	!	!	!	!	!	!	!LO:LB:g=original	!	!	!	!	!	!	!	!	!	!	!	!	!	!	!
=27	=27	=27	=27	=27	=27	=27	=27	=27	=27	=27	=27	=27	=27	=27	=27	=27	=27	=27	=27	=27	=27	=27	=27	=27	=27	=27	=27	=27	=27	=27	=27
4E-\	.	4B-/	.	4g/	.	4ee-\	.	4E-\	-am	-tis	.	4B-\	-am	-ce	.	4g\	-am	-stus	.	4ee-\	-am	-tis	.	.	.	.	.	.	.	.	.
8E-\L	.	8B-/L	.	8g/L	.	8ee-\L	.	4r	.	.	.	4r	.	.	.	4r	.	.	.	4r	.	.	.	.	.	.	.	.	.	.	.
8E-\J	.	8B-/J	.	8g/J	.	8ee-\J	.	.	.	.	.	.	.	.	.	.	.	.	.	.	.	.	.	.	.	.	.	.	.	.	.
!	!LO:DY:rj	!	!	!	!	!LO:TX:t=P:problem:mixed beam	!LO:DY:t=f&colon;	!	!	!	!	!	!	!	!	!	!	!	!	!	!	!	!	!	!	!	!	!	!	!	!
8.E-\L	f	8.B-/L	f	8.g/L	f	8.ee-\L	f	2r	.	.	.	2r	.	.	.	2r	.	.	.	2r	.	.	.	.	.	.	.	.	.	.	.
16E-\Jk	.	16E-/Jk	.	16e-/Jk	.	16e-/Jk	.	.	.	.	.	.	.	.	.	.	.	.	.	.	.	.	.	.	.	.	.	.	.	.	.
16G\LL	.	(16G/LL	.	(16g/LL	.	(16g/LL	.	.	.	.	.	.	.	.	.	.	.	.	.	.	.	.	.	.	.	.	.	.	.	.	.
16E-\	.	16E-/)	.	16e-/	.	16e-/	.	.	.	.	.	.	.	.	.	.	.	.	.	.	.	.	.	.	.	.	.	.	.	.	.
16B-\	.	(16B-/	.	16b-/	.	16b-/	.	.	.	.	.	.	.	.	.	.	.	.	.	.	.	.	.	.	.	.	.	.	.	.	.
16G\JJ	.	16G/JJ)	.	16g/JJ)	.	16g/JJ)	.	.	.	.	.	.	.	.	.	.	.	.	.	.	.	.	.	.	.	.	.	.	.	.	.
=28	=28	=28	=28	=28	=28	=28	=28	=28	=28	=28	=28	=28	=28	=28	=28	=28	=28	=28	=28	=28	=28	=28	=28	=28	=28	=28	=28	=28	=28	=28	=28
!	!	!	!	!	!	!	!	!	!	!	!	!	!	!	!	!	!	!	!	!	!	!	!	!	!LO:DY:rj	!LO:TX:t=P:problem:bemol dd- przed nutą	!	!	!	!	!
8E-\L	.	16r	.	(16G/LL	.	16r	.	2E-\	Et	Sub-	.	2d-X\	et	me-	.	2g\	Et	Jus-	.	2ee-\	Et	Sub-	.	2E-/	f	2e-\	f	2g/	f	2dd-X\	f
.	.	(16e-\LL	.	16B-/)	.	(16ee-\LL	.	.	.	.	.	.	.	.	.	.	.	.	.	.	.	.	.	.	.	.	.	.	.	.	.
8E-\	.	16d-X\	.	(16G/	.	16dd-X\	.	.	.	.	.	.	.	.	.	.	.	.	.	.	.	.	.	.	.	.	.	.	.	.	.
.	.	16B-\JJ)	.	16B-/JJ)	.	16b-\JJ)	.	.	.	.	.	.	.	.	.	.	.	.	.	.	.	.	.	.	.	.	.	.	.	.	.
!	!	!LO:TX:t=P:problem:mixed beam	!	!	!	!	!	!	!	!	!	!	!	!	!	!	!	!	!	!	!	!	!	!	!	!	!	!	!	!	!
8G\	.	(16G/LL	.	(16G/LL	.	(16g/LL	.	.	.	.	.	.	.	.	.	.	.	.	.	.	.	.	.	.	.	.	.	.	.	.	.
.	.	16e-X\	.	16B-/)	.	16e-/	.	.	.	.	.	.	.	.	.	.	.	.	.	.	.	.	.	.	.	.	.	.	.	.	.
8E-\J	.	16d-X\	.	(16G/	.	16d-X/	.	.	.	.	.	.	.	.	.	.	.	.	.	.	.	.	.	.	.	.	.	.	.	.	.
.	.	16B-\JJ)	.	16B-/JJ)	.	16B-/JJ)	.	.	.	.	.	.	.	.	.	.	.	.	.	.	.	.	.	.	.	.	.	.	.	.	.
8A-X\L	.	16r	.	(16A-X/LL	.	16r	.	2AA-X/	Se-	-la-	.	2c\	Se-	-mo-	.	2a-\	Se-	-tus	.	2ee-\	se-	-la-	.	2E-/	.	2e-\	.	2a-X/	.	2cc\	.
.	.	(16e-\LL	.	16c/)	.	(16ee-\LL	.	.	.	.	.	.	.	.	.	.	.	.	.	.	.	.	.	.	.	.	.	.	.	.	.
8E-\	.	16c\	.	(16A-/	.	16cc\	.	.	.	.	.	.	.	.	.	.	.	.	.	.	.	.	.	.	.	.	.	.	.	.	.
.	.	16A-\JJ)	.	16c/JJ)	.	16a-\JJ)	.	.	.	.	.	.	.	.	.	.	.	.	.	.	.	.	.	.	.	.	.	.	.	.	.
8A-\	.	(16e-\LL	.	(16A-/LL	.	(16e-/LL	.	.	.	.	.	.	.	.	.	.	.	.	.	.	.	.	.	.	.	.	.	.	.	.	.
.	.	16c\	.	16c/)	.	16c/	.	.	.	.	.	.	.	.	.	.	.	.	.	.	.	.	.	.	.	.	.	.	.	.	.
8E-\J	.	16G\	.	(16A-/	.	16G/	.	.	.	.	.	.	.	.	.	.	.	.	.	.	.	.	.	.	.	.	.	.	.	.	.
.	.	16A-\JJ)	.	16c/JJ)	.	16A-/JJ)	.	.	.	.	.	.	.	.	.	.	.	.	.	.	.	.	.	.	.	.	.	.	.	.	.
!	!	!	!	!	!	!LO:LB:g=original	!	!	!	!	!	!	!	!	!	!	!	!	!	!	!	!	!	!	!	!	!	!	!	!	!
=29	=29	=29	=29	=29	=29	=29	=29	=29	=29	=29	=29	=29	=29	=29	=29	=29	=29	=29	=29	=29	=29	=29	=29	=29	=29	=29	=29	=29	=29	=29	=29
!	!	!	!	!	!	!	!	!	!	!	!	!	!	!	!	!	!	!	!	!	!	!	!	!	!	!	!	!	!	!LO:SIC:v:s=2dd-\	!
8G\L	.	16r	.	(16G/LL	.	16r	.	2E-\	-cun-	-tus	.	2d-X\	-cun-	-ri-	.	2g\	-cun-	in	.	2ee-\	-cun-	-tus	.	2E-/	.	2e-\	.	2g/	.	2dd\	.
.	.	(16e-\LL	.	16B-/)	.	(16ee-\LL	.	.	.	.	.	.	.	.	.	.	.	.	.	.	.	.	.	.	.	.	.	.	.	.	.
8E-\	.	16d-X\	.	(16G/	.	16dd-X\	.	.	.	.	.	.	.	.	.	.	.	.	.	.	.	.	.	.	.	.	.	.	.	.	.
.	.	16B-\JJ)	.	16B-/JJ)	.	16b-\JJ)	.	.	.	.	.	.	.	.	.	.	.	.	.	.	.	.	.	.	.	.	.	.	.	.	.
!	!	!LO:TX:t=P:problem:mixed beam	!	!	!	!	!	!	!	!	!	!	!	!	!	!	!	!	!	!	!	!	!	!	!	!	!	!	!	!	!
8G\	.	(16G/LL	.	(16G/LL	.	(16g/LL	.	.	.	.	.	.	.	.	.	.	.	.	.	.	.	.	.	.	.	.	.	.	.	.	.
.	.	16e-\	.	16B-/)	.	16e-/	.	.	.	.	.	.	.	.	.	.	.	.	.	.	.	.	.	.	.	.	.	.	.	.	.
8E-\J	.	16d-X\	.	(16G/	.	16d-X/	.	.	.	.	.	.	.	.	.	.	.	.	.	.	.	.	.	.	.	.	.	.	.	.	.
.	.	16B-\JJ)	.	16B-/JJ)	.	16B-/JJ)	.	.	.	.	.	.	.	.	.	.	.	.	.	.	.	.	.	.	.	.	.	.	.	.	.
8A-\L	.	16r	.	(16A-/LL	.	16r	.	2AA-/	-dum	est	.	2c\	-dum	-a	.	2a-\	-dum	pa-	.	2ee-\	-dum	est	.	2E-/	.	2e-\	.	2a-/	.	2cc\	.
.	.	(16e-\LL	.	16c/)	.	(16ee-\LL	.	.	.	.	.	.	.	.	.	.	.	.	.	.	.	.	.	.	.	.	.	.	.	.	.
8E-\	.	16c\	.	(16A-/	.	16cc\	.	.	.	.	.	.	.	.	.	.	.	.	.	.	.	.	.	.	.	.	.	.	.	.	.
.	.	16A-\JJ)	.	16c/JJ)	.	16a-\JJ)	.	.	.	.	.	.	.	.	.	.	.	.	.	.	.	.	.	.	.	.	.	.	.	.	.
8A-\	.	(16e-\LL	.	(16A-/LL	.	(16e-/LL	.	.	.	.	.	.	.	.	.	.	.	.	.	.	.	.	.	.	.	.	.	.	.	.	.
.	.	16c\	.	16c/)	.	16c/	.	.	.	.	.	.	.	.	.	.	.	.	.	.	.	.	.	.	.	.	.	.	.	.	.
8E-\J	.	16G\	.	(16A-/	.	16G/	.	.	.	.	.	.	.	.	.	.	.	.	.	.	.	.	.	.	.	.	.	.	.	.	.
.	.	16A-\JJ)	.	16c/JJ)	.	16A-/JJ)	.	.	.	.	.	.	.	.	.	.	.	.	.	.	.	.	.	.	.	.	.	.	.	.	.
!	!	!	!	!	!	!	!	!LO:LB:g=original	!	!	!	!	!	!	!	!	!	!	!	!	!	!	!	!	!	!	!	!	!	!LO:LB:g=original	!
=30	=30	=30	=30	=30	=30	=30	=30	=30	=30	=30	=30	=30	=30	=30	=30	=30	=30	=30	=30	=30	=30	=30	=30	=30	=30	=30	=30	=30	=30	=30	=30
8An\L	.	16r	.	(16c/LL	.	16r	.	2C/	mul-	Ju-	.	2e-\	mul-	e-	.	2an\	mul-	-ce	.	2ff\	mul-	Ju-	.	2f\	.	2f\	.	2an/	.	2ff\	.
.	.	(16f\LL	.	16e-/)	.	(16ff\LL	.	.	.	.	.	.	.	.	.	.	.	.	.	.	.	.	.	.	.	.	.	.	.	.	.
8F\	.	16e-\	.	(16c/	.	16ee-\	.	.	.	.	.	.	.	.	.	.	.	.	.	.	.	.	.	.	.	.	.	.	.	.	.
.	.	16c\JJ)	.	16e-/JJ)	.	16cc\JJ)	.	.	.	.	.	.	.	.	.	.	.	.	.	.	.	.	.	.	.	.	.	.	.	.	.
!	!	!LO:LB:g=original	!	!	!	!	!	!	!	!	!	!	!	!	!	!	!	!	!	!	!	!	!	!	!	!	!	!	!	!	!
!	!	!LO:SIC:v:s=(16An/LL	!	!	!	!	!	!	!	!	!	!	!	!	!	!	!	!	!	!	!	!	!	!	!	!	!	!	!	!	!
8A\	.	(16Bn/LL	.	(16c/LL	.	(16an/LL	.	.	.	.	.	.	.	.	.	.	.	.	.	.	.	.	.	.	.	.	.	.	.	.	.
.	.	16F/	.	16e-/)	.	16f/	.	.	.	.	.	.	.	.	.	.	.	.	.	.	.	.	.	.	.	.	.	.	.	.	.
!	!	!LO:SIC:v:s=16E-/)	!	!	!	!	!	!	!	!	!	!	!	!	!	!	!	!	!	!	!	!	!	!	!	!	!	!	!	!	!
8F\J	.	16D/	.	(16c/	.	16e-/	.	.	.	.	.	.	.	.	.	.	.	.	.	.	.	.	.	.	.	.	.	.	.	.	.
.	.	16C/JJ)	.	16e-/JJ)	.	16c/JJ)	.	.	.	.	.	.	.	.	.	.	.	.	.	.	.	.	.	.	.	.	.	.	.	.	.
8B-\L	.	16r	.	(16d/LL	.	16r	.	2BB-/	-ti-	-stus	.	2d\	-ti-	-ius	.	2b-\	-ti-	in	.	2ff\	-ti-	-stus	.	2f\	.	2f\	.	2b-/	.	2dd\	.
.	.	(16f\LL	.	16f/)	.	(16ff\LL	.	.	.	.	.	.	.	.	.	.	.	.	.	.	.	.	.	.	.	.	.	.	.	.	.
8F\	.	16d\	.	(16d/	.	16dd\	.	.	.	.	.	.	.	.	.	.	.	.	.	.	.	.	.	.	.	.	.	.	.	.	.
!	!	!LO:SIC:v:s=16B-\JJ)	!	!	!	!	!	!	!	!	!	!	!	!	!	!	!	!	!	!	!	!	!	!	!	!	!	!	!	!	!
.	.	16B\JJ)	.	16f/JJ)	.	16b-\JJ)	.	.	.	.	.	.	.	.	.	.	.	.	.	.	.	.	.	.	.	.	.	.	.	.	.
!	!	!	!	!LO:LB:g=original	!	!	!	!	!	!	!	!	!	!	!	!	!	!	!	!	!	!	!	!	!	!	!	!	!	!	!
8B-\	.	(16f\LL	.	(16d/LL	.	(16f/LL	.	.	.	.	.	.	.	.	.	.	.	.	.	.	.	.	.	.	.	.	.	.	.	.	.
.	.	16d\	.	16f/)	.	16d/	.	.	.	.	.	.	.	.	.	.	.	.	.	.	.	.	.	.	.	.	.	.	.	.	.
8F\J	.	16An\	.	(16d/	.	16An/	.	.	.	.	.	.	.	.	.	.	.	.	.	.	.	.	.	.	.	.	.	.	.	.	.
!	!	!LO:SIC:v:s=16B-\JJ)	!	!	!	!	!	!	!	!	!	!	!	!	!	!	!	!	!	!	!	!	!	!	!	!	!	!	!	!	!
.	.	16B\JJ)	.	16f/JJ)	.	16B-/JJ)	.	.	.	.	.	.	.	.	.	.	.	.	.	.	.	.	.	.	.	.	.	.	.	.	.
=31	=31	=31	=31	=31	=31	=31	=31	=31	=31	=31	=31	=31	=31	=31	=31	=31	=31	=31	=31	=31	=31	=31	=31	=31	=31	=31	=31	=31	=31	=31	=31
!	!	!	!	!	!	!	!	!	!	!	!	!	!	!	!	!	!	!	!	!	!	!	!	!	!	!	!	!LO:SIC:v:s=2an/	!	!	!
8An\L	.	16r	.	(16c/LL	.	16r	.	2C/	-tu-	et	.	2e-\	-tu-	Jn	.	2an\	-tu-	pa-	.	2ff\	-tu-	a	.	2f\	.	2f\	.	2a-/	.	2ee-\	.
.	.	(16f\LL	.	16e-/)	.	(16ff\LL	.	.	.	.	.	.	.	.	.	.	.	.	.	.	.	.	.	.	.	.	.	.	.	.	.
8F\	.	16e-\	.	(16c/	.	16ee-\	.	.	.	.	.	.	.	.	.	.	.	.	.	.	.	.	.	.	.	.	.	.	.	.	.
.	.	16c\JJ)	.	16e-/JJ)	.	16cc\JJ)	.	.	.	.	.	.	.	.	.	.	.	.	.	.	.	.	.	.	.	.	.	.	.	.	.
!LO:SIC:v:s=8A\	!	!	!	!	!	!	!	!	!	!	!	!	!	!	!	!	!	!	!	!	!	!	!	!	!	!	!	!	!	!	!
8B-\	.	(16An/LL	.	(16c/LL	.	(16an/LL	.	.	.	.	.	.	.	.	.	.	.	.	.	.	.	.	.	.	.	.	.	.	.	.	.
.	.	16F/	.	16e-/)	.	16f/	.	.	.	.	.	.	.	.	.	.	.	.	.	.	.	.	.	.	.	.	.	.	.	.	.
8F\J	.	16E-/	.	(16c/	.	16e-/	.	.	.	.	.	.	.	.	.	.	.	.	.	.	.	.	.	.	.	.	.	.	.	.	.
.	.	16C/JJ)	.	16e-/JJ)	.	16c/JJ)	.	.	.	.	.	.	.	.	.	.	.	.	.	.	.	.	.	.	.	.	.	.	.	.	.
8B-\L	.	16r	.	(16d/LL	.	16r	.	4BB-/	-di-	e-	.	4d\	-di-	pa-	.	4b-\	-di-	-ce	.	4ff\	-di-	fa-	.	2f\	.	2f\	.	2b-/	.	2dd\	.
.	.	(16f\LL	.	16f/)	.	(16ff\LL	.	.	.	.	.	.	.	.	.	.	.	.	.	.	.	.	.	.	.	.	.	.	.	.	.
8F\	.	16d\	.	(16d/	.	16dd\	.	.	.	.	.	.	.	.	.	.	.	.	.	.	.	.	.	.	.	.	.	.	.	.	.
.	.	16B-\JJ)	.	16f/JJ)	.	16b-\JJ)	.	.	.	.	.	.	.	.	.	.	.	.	.	.	.	.	.	.	.	.	.	.	.	.	.
8B-\	.	(16f\LL	.	(16d/LL	.	(16f/LL	.	4BB-/	-nem	-rit	.	4d\	-nem	-ce	.	4b-\	-nem	e-	.	4ff\	-nem	-ci-	.	.	.	.	.	.	.	.	.
.	.	16d\	.	16f/)	.	16d/	.	.	.	.	.	.	.	.	.	.	.	.	.	.	.	.	.	.	.	.	.	.	.	.	.
8F\J	.	16An\	.	(16d/	.	16An/	.	.	.	.	.	.	.	.	.	.	.	.	.	.	.	.	.	.	.	.	.	.	.	.	.
.	.	16B-\JJ)	.	16f/JJ)	.	16B-/JJ)	.	.	.	.	.	.	.	.	.	.	.	.	.	.	.	.	.	.	.	.	.	.	.	.	.
!	!	!	!	!	!	!LO:LB:g=original	!	!	!	!	!	!	!	!	!	!	!	!	!	!	!	!	!	!	!	!	!	!	!	!	!
=32	=32	=32	=32	=32	=32	=32	=32	=32	=32	=32	=32	=32	=32	=32	=32	=32	=32	=32	=32	=32	=32	=32	=32	=32	=32	=32	=32	=32	=32	=32	=32
8D/L	.	16r	.	(16d/LL	.	16r	.	2D\	mi-	in	.	2f\	mi-	lo-	.	2a-X\	mi-	-rit	.	2b-\	mi-	-e	.	2B-/	.	2B-/	.	2a-X/	.	2dd\	.
.	.	(16b-\LL	.	16f/)	.	(16b-/LL	.	.	.	.	.	.	.	.	.	.	.	.	.	.	.	.	.	.	.	.	.	.	.	.	.
8BB-/	.	16a-X\	.	(16d/	.	16a-X/	.	.	.	.	.	.	.	.	.	.	.	.	.	.	.	.	.	.	.	.	.	.	.	.	.
.	.	16f\JJ)	.	16f/JJ)	.	16f/JJ)	.	.	.	.	.	.	.	.	.	.	.	.	.	.	.	.	.	.	.	.	.	.	.	.	.
8D/	.	(16d\LL	.	(16d/LL	.	(16d/LL	.	.	.	.	.	.	.	.	.	.	.	.	.	.	.	.	.	.	.	.	.	.	.	.	.
.	.	16B-\	.	16f/)	.	16B-/	.	.	.	.	.	.	.	.	.	.	.	.	.	.	.	.	.	.	.	.	.	.	.	.	.
8BB-/J	.	16An\	.	(16d/	.	16An/	.	.	.	.	.	.	.	.	.	.	.	.	.	.	.	.	.	.	.	.	.	.	.	.	.
.	.	16B-\JJ)	.	16f/JJ)	.	16B-/JJ)	.	.	.	.	.	.	.	.	.	.	.	.	.	.	.	.	.	.	.	.	.	.	.	.	.
!LO:LB:g=original	!	!	!	!	!	!	!	!	!	!	!	!	!	!	!	!	!	!	!	!	!	!	!	!	!	!	!	!LO:LB:g=original	!	!	!
8E-/L	.	16r	.	(16e-/LL	.	16r	.	2E-\	-se-	pa-	.	2e-\	-se-	-cus	.	2g\	-se-	in	.	2b-\	-se-	i-	.	2BB-/	.	2B-/	.	2g/	.	2ee-\	.
.	.	(16b-\LL	.	16g/)	.	(16b-/LL	.	.	.	.	.	.	.	.	.	.	.	.	.	.	.	.	.	.	.	.	.	.	.	.	.
8BB-/	.	16g\	.	(16e-/	.	16g/	.	.	.	.	.	.	.	.	.	.	.	.	.	.	.	.	.	.	.	.	.	.	.	.	.
.	.	16e-\JJ)	.	16g/JJ)	.	16e-/JJ)	.	.	.	.	.	.	.	.	.	.	.	.	.	.	.	.	.	.	.	.	.	.	.	.	.
!	!	!LO:TX:t=P:problem:mixed beam	!	!	!	!	!	!	!	!	!	!	!	!	!	!	!	!	!	!	!	!	!	!	!	!	!	!	!	!	!
8E-/	.	(16d\LL	.	(16e-/LL	.	(16d/LL	.	.	.	.	.	.	.	.	.	.	.	.	.	.	.	.	.	.	.	.	.	.	.	.	.
.	.	16e-\	.	16g/)	.	16e-/	.	.	.	.	.	.	.	.	.	.	.	.	.	.	.	.	.	.	.	.	.	.	.	.	.
8BB-/J	.	16B-/	.	(16e-/	.	16B-/	.	.	.	.	.	.	.	.	.	.	.	.	.	.	.	.	.	.	.	.	.	.	.	.	.
.	.	16G/JJ)	.	16g/JJ)	.	16G/JJ)	.	.	.	.	.	.	.	.	.	.	.	.	.	.	.	.	.	.	.	.	.	.	.	.	.
!	!	!	!	!	!	!	!	!	!	!	!	!LO:LB:g=original	!	!	!	!	!	!	!	!	!	!	!	!	!	!LO:LB:g=original	!	!	!	!	!
=33	=33	=33	=33	=33	=33	=33	=33	=33	=33	=33	=33	=33	=33	=33	=33	=33	=33	=33	=33	=33	=33	=33	=33	=33	=33	=33	=33	=33	=33	=33	=33
8D/L	.	16r	.	(16d/LL	.	16r	.	2D\	-ra-	-ce	.	2f\	-ra-	e-	.	2a-\	-ra-	pa-	.	2b-\	-ra-	-ni-	.	2BB-/	.	2B-/	.	2a-/	.	2dd\	.
.	.	(16b-\LL	.	16f/)	.	(16b-/LL	.	.	.	.	.	.	.	.	.	.	.	.	.	.	.	.	.	.	.	.	.	.	.	.	.
8BB-/	.	16a-X\	.	(16d/	.	16a-X/	.	.	.	.	.	.	.	.	.	.	.	.	.	.	.	.	.	.	.	.	.	.	.	.	.
.	.	16f\JJ)	.	16f/JJ)	.	16f/JJ)	.	.	.	.	.	.	.	.	.	.	.	.	.	.	.	.	.	.	.	.	.	.	.	.	.
!	!	!LO:LB:g=original	!	!	!	!	!	!	!	!	!	!	!	!	!	!	!	!	!	!	!	!	!	!	!	!	!	!	!	!	!
8D/	.	(16d\LL	.	(16d/LL	.	(16d/LL	.	.	.	.	.	.	.	.	.	.	.	.	.	.	.	.	.	.	.	.	.	.	.	.	.
.	.	16B-\	.	16f/)	.	16B-/	.	.	.	.	.	.	.	.	.	.	.	.	.	.	.	.	.	.	.	.	.	.	.	.	.
8BB-/J	.	16An\	.	(16d/	.	16An/	.	.	.	.	.	.	.	.	.	.	.	.	.	.	.	.	.	.	.	.	.	.	.	.	.
.	.	16B-\JJ)	.	16f/JJ)	.	16B-/JJ)	.	.	.	.	.	.	.	.	.	.	.	.	.	.	.	.	.	.	.	.	.	.	.	.	.
8E-/L	.	16r	.	(16e-/LL	.	16r	.	2E-\	-ti-	me-	.	2e-\	-ti-	-ius	.	2g\	-ti-	-ce	.	2b-\	-ti-	-qvi-	.	2BB-/	.	2B-/	.	2g/	.	2ee-\	.
.	.	(16b-\LL	.	16g/)	.	(16b-/LL	.	.	.	.	.	.	.	.	.	.	.	.	.	.	.	.	.	.	.	.	.	.	.	.	.
8BB-/	.	16g\	.	(16e-/	.	16g/	.	.	.	.	.	.	.	.	.	.	.	.	.	.	.	.	.	.	.	.	.	.	.	.	.
.	.	16e-\JJ)	.	16g/JJ)	.	16e-/JJ)	.	.	.	.	.	.	.	.	.	.	.	.	.	.	.	.	.	.	.	.	.	.	.	.	.
8E-/	.	(16d\LL	.	(16e-/LL	.	(16d/LL	.	.	.	.	.	.	.	.	.	.	.	.	.	.	.	.	.	.	.	.	.	.	.	.	.
.	.	16e-\	.	16g/)	.	16e-/	.	.	.	.	.	.	.	.	.	.	.	.	.	.	.	.	.	.	.	.	.	.	.	.	.
8BB-/J	.	16B-\	.	(16e-/	.	16B-/	.	.	.	.	.	.	.	.	.	.	.	.	.	.	.	.	.	.	.	.	.	.	.	.	.
.	.	16G\JJ)	.	16g/JJ)	.	16G/JJ)	.	.	.	.	.	.	.	.	.	.	.	.	.	.	.	.	.	.	.	.	.	.	.	.	.
=34	=34	=34	=34	=34	=34	=34	=34	=34	=34	=34	=34	=34	=34	=34	=34	=34	=34	=34	=34	=34	=34	=34	=34	=34	=34	=34	=34	=34	=34	=34	=34
8A-\	.	16r	.	16r	.	16r	.	(4A-\	-o-	-mo-	.	(4e-\	-o-	et	.	(4a-\	-o-	lo-	.	(4cc\	-o-	-ta-	.	2r	.	2r	.	4a-/	.	4cc\	.
.	.	16e-'\LL	.	16a-'/LL	.	(16cc'\LL	.	.	.	.	.	.	.	.	.	.	.	.	.	.	.	.	.	.	.	.	.	.	.	.	.
8r	.	16e-'\	.	16a-'/	.	16cc'\	.	.	.	.	.	.	.	.	.	.	.	.	.	.	.	.	.	.	.	.	.	.	.	.	.
.	.	16e-'\JJ	.	16a-'/JJ	.	16cc'\JJ)	.	.	.	.	.	.	.	.	.	.	.	.	.	.	.	.	.	.	.	.	.	.	.	.	.
8F\	.	16r	.	16r	.	16r	.	4F\)	.	.	.	4B-\)	.	in	.	4f\)	.	-cus	.	4dd\)	.	.	.	.	.	.	.	4f/	.	4dd\	.
.	.	16B-'/LL	.	16f'/LL	.	(16dd'\LL	.	.	.	.	.	.	.	.	.	.	.	.	.	.	.	.	.	.	.	.	.	.	.	.	.
8r	.	16B-'/	.	16f'/	.	16dd'\	.	.	.	.	.	.	.	.	.	.	.	.	.	.	.	.	.	.	.	.	.	.	.	.	.
.	.	16B-'/JJ	.	16f'/JJ	.	16dd'\JJ)	.	.	.	.	.	.	.	.	.	.	.	.	.	.	.	.	.	.	.	.	.	.	.	.	.
!	!	!	!	!LO:LB:g=original	!	!	!	!	!	!	!	!	!	!	!	!	!	!	!	!	!	!	!	!	!	!	!	!	!	!	!
8G\	.	16r	.	16r	.	16r	.	4G\	-num	-ri-	.	4B-\	-num	si-	.	4g\	-nem	e-	.	4ee-\	-nem	.	.	4r	.	4r	.	4g/	.	4ee-\	.
.	.	16B-'/LL	.	16g'/LL	.	(16ee-'\LL	.	.	.	.	.	.	.	.	.	.	.	.	.	.	.	.	.	.	.	.	.	.	.	.	.
8r	.	16B-'/	.	16g'/	.	16ee-'\	.	.	.	.	.	.	.	.	.	.	.	.	.	.	.	.	.	.	.	.	.	.	.	.	.
.	.	16B-'/JJ	.	16g'/JJ	.	16ee-'\JJ)	.	.	.	.	.	.	.	.	.	.	.	.	.	.	.	.	.	.	.	.	.	.	.	.	.
8A-\	.	16r	.	16r	.	16r	.	4A-\	tu-	-a	.	4c\	tu-	-on	.	4f\	tu-	-ius	.	4a-\	tu-	-tis	.	4f\	.	4a-\	.	4ff\	.	4aa-\	.
.	.	16c'/LL	.	16f'/LL	.	(16a-'/LL	.	.	.	.	.	.	.	.	.	.	.	.	.	.	.	.	.	.	.	.	.	.	.	.	.
8r	.	16c'/	.	16f'/	.	16a-'/	.	.	.	.	.	.	.	.	.	.	.	.	.	.	.	.	.	.	.	.	.	.	.	.	.
.	.	16c'/JJ	.	16f'/JJ	.	16a-'/JJ)	.	.	.	.	.	.	.	.	.	.	.	.	.	.	.	.	.	.	.	.	.	.	.	.	.
!	!	!	!	!	!	!LO:LB:g=original	!	!	!	!	!	!	!	!	!	!	!	!	!	!LO:LB:g=original	!	!	!	!LO:LB:g=original	!	!	!	!	!	!	!
=35	=35	=35	=35	=35	=35	=35	=35	=35	=35	=35	=35	=35	=35	=35	=35	=35	=35	=35	=35	=35	=35	=35	=35	=35	=35	=35	=35	=35	=35	=35	=35
!LO:TX:b:t=Tasto	!	!	!	!	!	!	!	!	!	!	!	!	!	!	!	!	!	!	!	!	!	!	!	!	!	!	!	!	!	!	!
!LO:TX:t=P:problem:mixed beam	!	!	!	!	!	!	!	!	!	!	!LO:DY:a	!	!	!	!LO:DY:a	!	!	!	!	!	!	!	!	!	!	!	!	!	!	!	!
8B-\L	.	(16G/LL	.	(16g/LL	.	(16g/LL	.	4BB-/	-a-	e-	p	2B-\	-a-	in	p	4g\	-a-	et	.	4b-\	-a-	Sub-	.	4g\	.	4b-\	.	4b-/	.	4gg\	.
.	.	16B-/	.	16b-/)	.	16b-/	.	.	.	.	.	.	.	.	.	.	.	.	.	.	.	.	.	.	.	.	.	.	.	.	.
8BB-/	.	16An/	.	(16g/	.	16an/	.	.	.	.	.	.	.	.	.	.	.	.	.	.	.	.	.	.	.	.	.	.	.	.	.
.	.	16B-/JJ)	.	16b-/JJ)	.	16b-/JJ)	.	.	.	.	.	.	.	.	.	.	.	.	.	.	.	.	.	.	.	.	.	.	.	.	.
8BB-/	.	(16A-X/LL	.	(16f/LL	.	(16a-X/LL	.	4BB-/	-rum	-jus	.	.	.	.	.	4f\	-rum	in	.	4a-\	-rum	.	.	4f\	.	4a-\	.	4a-/	.	4ff\	.
.	.	16F/)	.	16a-/)	.	16f/	.	.	.	.	.	.	.	.	.	.	.	.	.	.	.	.	.	.	.	.	.	.	.	.	.
8BB-/J	.	(16A-/	.	(16f/	.	16d/	.	.	.	.	.	.	.	.	.	.	.	.	.	.	.	.	.	.	.	.	.	.	.	.	.
.	.	16F/JJ)	.	16a-/JJ)	.	16A-/JJ)	.	.	.	.	.	.	.	.	.	.	.	.	.	.	.	.	.	.	.	.	.	.	.	.	.
*tremolo	*	*	*	*	*	*	*	*	*	*	*	*	*	*	*	*	*	*	*	*	*	*	*	*	*	*	*	*	*	*	*
!	!	!	!	!	!	!LO:TX:t=P:problem:mixed beam	!	!	!	!	!	!	!	!	!	!	!	!	!	!	!	!	!	!	!	!	!	!	!	!	!
8BB-/L	.	(16G/LL	.	(16e-/LL	.	(16G/LL	.	2BB-/	De-	in	.	4B-\	-rum	si-	.	(4e-\	de-	si-	.	(4g/	de-	-la-	.	4e-\	.	4g\	.	4g/	.	4ee-\	.
.	.	16B-/)	.	16g/)	.	16b-\	.	.	.	.	.	.	.	.	.	.	.	.	.	.	.	.	.	.	.	.	.	.	.	.	.
8BB-/	.	(16An/	.	(16e-/	.	16an\	.	.	.	.	.	.	.	.	.	.	.	.	.	.	.	.	.	.	.	.	.	.	.	.	.
.	.	16B-/JJ)	.	16g/JJ)	.	16b-\JJ)	.	.	.	.	.	.	.	.	.	.	.	.	.	.	.	.	.	.	.	.	.	.	.	.	.
8BB-/	.	(16c/LL	.	(16d/LL	.	(16cc\LL	.	.	.	.	.	4B-\	De-	-on	.	4d\)	.	-on	.	4f/)	.	-tus	.	4B-/	.	4f\	.	4f/	.	4dd\	.
.	.	16B-/)	.	16f/)	.	16b-\	.	.	.	.	.	.	.	.	.	.	.	.	.	.	.	.	.	.	.	.	.	.	.	.	.
8BB-/J	.	(16A/	.	(16d/	.	16a\	.	.	.	.	.	.	.	.	.	.	.	.	.	.	.	.	.	.	.	.	.	.	.	.	.
.	.	16B-/JJ)	.	16f/JJ)	.	16b-\JJ)	.	.	.	.	.	.	.	.	.	.	.	.	.	.	.	.	.	.	.	.	.	.	.	.	.
!	!	!	!	!	!	!	!	!	!	!	!	!	!	!	!	!LO:LB:g=original	!	!	!	!	!	!	!	!	!	!	!	!	!	!	!
=36	=36	=36	=36	=36	=36	=36	=36	=36	=36	=36	=36	=36	=36	=36	=36	=36	=36	=36	=36	=36	=36	=36	=36	=36	=36	=36	=36	=36	=36	=36	=36
8BB-/L	.	(16G/LL	.	(16g/LL	.	(16g/LL	.	4BB-/	-le	pa-	.	4B-\	-le	ha-	.	4g\	-le	ha-	.	4b-\	-le	est-	.	4g\	.	4b-\	.	4b-/	.	4gg\	.
.	.	16B-/	.	16b-/)	.	16b-/	.	.	.	.	.	.	.	.	.	.	.	.	.	.	.	.	.	.	.	.	.	.	.	.	.
8BB-/	.	16An/	.	(16g/	.	16an/	.	.	.	.	.	.	.	.	.	.	.	.	.	.	.	.	.	.	.	.	.	.	.	.	.
.	.	16B-/JJ)	.	16b-/JJ)	.	16b-/JJ)	.	.	.	.	.	.	.	.	.	.	.	.	.	.	.	.	.	.	.	.	.	.	.	.	.
8BB-/	.	(16A-X/LL	.	(16f/LL	.	(16a-X/LL	.	4BB-/	i-	-ce	.	4B-\	i-	-bi-	.	4f\	i-	-bi-	.	4a-\	i-	.	.	4f\	.	4a-\	.	4a-/	.	4ff\	.
.	.	16F/)	.	16a-/)	.	16f/	.	.	.	.	.	.	.	.	.	.	.	.	.	.	.	.	.	.	.	.	.	.	.	.	.
8BB-/J	.	16A-/	.	(16f/	.	16d/	.	.	.	.	.	.	.	.	.	.	.	.	.	.	.	.	.	.	.	.	.	.	.	.	.
.	.	16F/JJ	.	16a-/JJ)	.	16A-/JJ)	.	.	.	.	.	.	.	.	.	.	.	.	.	.	.	.	.	.	.	.	.	.	.	.	.
!	!	!LO:LB:g=original	!	!	!	!LO:TX:t=P:problem:mixed beam	!	!	!	!	!	!	!	!	!	!	!	!	!	!	!	!	!	!	!	!	!	!	!	!	!
8BB-/L	.	(16G/LL	.	(16e-/LL	.	(16G/LL	.	4BB-/	-ni-	fa-	.	4B-\	-ni-	-ta-	.	4e-\	-ni-	-ta-	.	4g/	-ni-	-Ju-	.	4e-\	.	4g\	.	4g/	.	4ee-\	.
.	.	16B-/	.	16g/)	.	16b-\	.	.	.	.	.	.	.	.	.	.	.	.	.	.	.	.	.	.	.	.	.	.	.	.	.
8BB-/	.	16An/	.	(16e-/	.	16an\	.	.	.	.	.	.	.	.	.	.	.	.	.	.	.	.	.	.	.	.	.	.	.	.	.
.	.	16B-/JJ)	.	16g/JJ)	.	16b-\JJ)	.	.	.	.	.	.	.	.	.	.	.	.	.	.	.	.	.	.	.	.	.	.	.	.	.
8BB-/	.	(16c/LL	.	(16d/LL	.	(16cc\LL	.	4BB-/	-qui-	-ctus	.	4B-\	-qui-	-ti-	.	4d\	-qvi-	-ti-	.	4f/	-qui-	-stus	.	4B-/	.	4f\	.	4f/	.	4dd\	.
.	.	16B-/	.	16f/)	.	16b-\	.	.	.	.	.	.	.	.	.	.	.	.	.	.	.	.	.	.	.	.	.	.	.	.	.
8BB-/J	.	16A/	.	(16d/	.	16a\	.	.	.	.	.	.	.	.	.	.	.	.	.	.	.	.	.	.	.	.	.	.	.	.	.
.	.	16B-/JJ)	.	16f/JJ)	.	16b-\JJ)	.	.	.	.	.	.	.	.	.	.	.	.	.	.	.	.	.	.	.	.	.	.	.	.	.
*Xtremolo	*	*	*	*	*	*	*	*	*	*	*	*	*	*	*	*	*	*	*	*	*	*	*	*	*	*	*	*	*	*	*
=37	=37	=37	=37	=37	=37	=37	=37	=37	=37	=37	=37	=37	=37	=37	=37	=37	=37	=37	=37	=37	=37	=37	=37	=37	=37	=37	=37	=37	=37	=37	=37
8A-\L	.	16r	.	16r	.	(32bn\LLL	.	(4A-\	-ta-	est	.	(4c\	-ta-	-o	.	(4a-\	-ta-	-o	.	(4cc\	-ta-	et	.	2r	.	2r	.	4a-/	.	4cc\	.
.	.	.	.	.	.	32cc\J)	.	.	.	.	.	.	.	.	.	.	.	.	.	.	.	.	.	.	.	.	.	.	.	.	.
.	.	16e-\LL	.	16a-'/LL	.	16cc'\	.	.	.	.	.	.	.	.	.	.	.	.	.	.	.	.	.	.	.	.	.	.	.	.	.
8A-\	.	16e-\	.	16a-'/	.	16cc'\	.	.	.	.	.	.	.	.	.	.	.	.	.	.	.	.	.	.	.	.	.	.	.	.	.
.	.	16e-\JJ	.	16a-'/JJ	.	16cc'\JJ	.	.	.	.	.	.	.	.	.	.	.	.	.	.	.	.	.	.	.	.	.	.	.	.	.
8F\	.	16r	.	16r	.	(32cc\LLL	.	4F\)	.	.	.	4d\)	.	e-	.	4f\)	.	.	.	4dd\)	.	.	.	.	.	.	.	4f/	.	4dd\	.
.	.	.	.	.	.	32dd\J)	.	.	.	.	.	.	.	.	.	.	.	.	.	.	.	.	.	.	.	.	.	.	.	.	.
.	.	16f\LL	.	16a-'/LL	.	16dd'\	.	.	.	.	.	.	.	.	.	.	.	.	.	.	.	.	.	.	.	.	.	.	.	.	.
8F\J	.	16f\	.	16a-'/	.	16dd'\	.	.	.	.	.	.	.	.	.	.	.	.	.	.	.	.	.	.	.	.	.	.	.	.	.
.	.	16f\JJ	.	16a-'/JJ	.	16dd'\JJ	.	.	.	.	.	.	.	.	.	.	.	.	.	.	.	.	.	.	.	.	.	.	.	.	.
8G\L	.	16r	.	16r	.	(32dd\LLL	.	(4G\	-tem	lo-	.	(4e-\	-tem.	-ius	.	(4g\	-tem	e-	.	(4ee-\	-tem	e-	.	4r	.	4r	.	4g/	.	4ee-\	.
.	.	.	.	.	.	32ee-\J)	.	.	.	.	.	.	.	.	.	.	.	.	.	.	.	.	.	.	.	.	.	.	.	.	.
.	.	16b-'\LL	.	16g'/LL	.	16ee-'\	.	.	.	.	.	.	.	.	.	.	.	.	.	.	.	.	.	.	.	.	.	.	.	.	.
8G\	.	16b-'\	.	16g'/	.	16ee-'\	.	.	.	.	.	.	.	.	.	.	.	.	.	.	.	.	.	.	.	.	.	.	.	.	.
.	.	16b-'\JJ	.	16g'/JJ	.	16ee-'\JJ	.	.	.	.	.	.	.	.	.	.	.	.	.	.	.	.	.	.	.	.	.	.	.	.	.
8A-\	.	16b-\LL	.	(16a-/LL	.	(16ff\LL	.	4A-\)	.	-cus	.	4A-\)	.	in	.	4a-\)	.	-rit	.	4ff\)	.	-rit	.	4f\	.	4a-\	.	4ff\	.	4aa-\	.
.	.	16a-\	.	16f/)	.	16dd\	.	.	.	.	.	.	.	.	.	.	.	.	.	.	.	.	.	.	.	.	.	.	.	.	.
!	!	!	!	!	!	!LO:SIC:v:s=16b-\	!	!	!	!	!	!	!	!	!	!	!	!	!	!	!	!	!	!	!	!	!	!	!	!	!
8A-\J	.	16f\	.	(16f/	.	16b\	.	.	.	.	.	.	.	.	.	.	.	.	.	.	.	.	.	.	.	.	.	.	.	.	.
.	.	16d\JJ	.	16d/JJ)	.	16a-\JJ)	.	.	.	.	.	.	.	.	.	.	.	.	.	.	.	.	.	.	.	.	.	.	.	.	.
!	!	!	!	!	!	!LO:LB:g=original	!	!	!	!	!	!	!	!	!	!	!	!	!	!	!	!	!	!	!	!	!	!	!	!	!
=38	=38	=38	=38	=38	=38	=38	=38	=38	=38	=38	=38	=38	=38	=38	=38	=38	=38	=38	=38	=38	=38	=38	=38	=38	=38	=38	=38	=38	=38	=38	=38
*tremolo	*	*	*	*	*	*	*	*	*	*	*	*	*	*	*	*	*	*	*	*	*	*	*	*	*	*	*	*	*	*	*
8B-\L	.	16r	.	16r	.	16r	.	2B-\	me-	e-	.	1B-	me-	pa-	.	2g\	me-	in	.	2ee-\	me-	in	.	2e-\	.	2g\	.	2ee-\	.	2gg\	.
.	.	16B-'/LL	.	16e-'/LL	.	16b-/LL|	.	.	.	.	.	.	.	.	.	.	.	.	.	.	.	.	.	.	.	.	.	.	.	.	.
8B-\	.	16B-'/	.	(16e-/	.	(16g/	.	.	.	.	.	.	.	.	.	.	.	.	.	.	.	.	.	.	.	.	.	.	.	.	.
.	.	16B-'/JJ	.	16G/JJ)	.	16e-/JJ)	.	.	.	.	.	.	.	.	.	.	.	.	.	.	.	.	.	.	.	.	.	.	.	.	.
!	!	!	!	!LO:LB:g=original	!	!	!	!	!	!	!	!	!	!	!	!	!	!	!	!	!	!	!	!	!	!	!	!	!	!	!
8B-\	.	16r	.	16r	.	16r	.	.	.	.	.	.	.	.	.	.	.	.	.	.	.	.	.	.	.	.	.	.	.	.	.
.	.	16B-'/LL	.	16e-/LL|	.	16b-/LL|	.	.	.	.	.	.	.	.	.	.	.	.	.	.	.	.	.	.	.	.	.	.	.	.	.
8B-\J	.	16B-'/	.	(16e-/	.	(16g/	.	.	.	.	.	.	.	.	.	.	.	.	.	.	.	.	.	.	.	.	.	.	.	.	.
.	.	16B-'/JJ	.	16G/JJ)	.	16e-/JJ)	.	.	.	.	.	.	.	.	.	.	.	.	.	.	.	.	.	.	.	.	.	.	.	.	.
8BB-/L	.	16r	.	16r	.	16r	.	2BB-/	.	.	.	.	.	.	.	2f\	.	pa-	.	2dd\	.	pa-	.	2B-/	.	2f\	.	2b-\	.	2ff\	.
!	!	!LO:TX:t=P:problem:mixed beam	!	!	!	!	!	!	!	!	!	!	!	!	!	!	!	!	!	!	!	!	!	!	!	!	!	!	!	!	!
.	.	16b-'\LL	.	16d/LL|	.	16a-/LL|	.	.	.	.	.	.	.	.	.	.	.	.	.	.	.	.	.	.	.	.	.	.	.	.	.
8BB-/	.	16B-'/	.	(16d/	.	(16f/	.	.	.	.	.	.	.	.	.	.	.	.	.	.	.	.	.	.	.	.	.	.	.	.	.
.	.	16B-'/JJ	.	16A-X/JJ)	.	16d/JJ)	.	.	.	.	.	.	.	.	.	.	.	.	.	.	.	.	.	.	.	.	.	.	.	.	.
8BB-/	.	16r	.	16r	.	16r	.	.	.	.	.	.	.	.	.	.	.	.	.	.	.	.	.	.	.	.	.	.	.	.	.
!	!	!LO:TX:t=P:problem:mixed beam	!	!	!	!	!	!	!	!	!	!	!	!	!	!	!	!	!	!	!	!	!	!	!	!	!	!	!	!	!
.	.	16b-'\LL	.	16d/LL|	.	16a-/LL|	.	.	.	.	.	.	.	.	.	.	.	.	.	.	.	.	.	.	.	.	.	.	.	.	.
8BB-/J	.	16B-'/	.	(16d/	.	(16f/	.	.	.	.	.	.	.	.	.	.	.	.	.	.	.	.	.	.	.	.	.	.	.	.	.
.	.	16B-'/JJ	.	16A-/JJ)	.	16d/JJ)	.	.	.	.	.	.	.	.	.	.	.	.	.	.	.	.	.	.	.	.	.	.	.	.	.
*Xtremolo	*	*	*	*	*	*	*	*	*	*	*	*	*	*	*	*	*	*	*	*	*	*	*	*	*	*	*	*	*	*	*
=39	=39	=39	=39	=39	=39	=39	=39	=39	=39	=39	=39	=39	=39	=39	=39	=39	=39	=39	=39	=39	=39	=39	=39	=39	=39	=39	=39	=39	=39	=39	=39
*	*	*	*	*	*	*	*	*	*	*	*	*	*	*	*	*	*	*	*	*	*	*	*	*	*	*	*	*tremolo	*	*	*
8E-\L	.	8B-/L	.	8b-L 8e-/	.	8e-L 8G/	.	4E-\	-am	-ius	.	4B-\	-am	-ce	.	4g\	-am	-ce	.	4ee-\	-am	-ce	.	8G/L	.	8e-\L	.	8g/L	.	8ee-\L	.
8E-\	.	8B-/	.	8b- 8e-/	.	8e- 8G/	.	.	.	.	.	.	.	.	.	.	.	.	.	.	.	.	.	8G/	.	8e-\	.	8g/	.	8ee-\	.
8E-\	.	8B-/	.	8b- 8e-/	.	8e- 8G/	.	4r	.	.	.	4r	.	.	.	4r	.	.	.	4r	.	.	.	8G/	.	8e-\	.	8g/	.	8ee-\	.
8E-\J	.	8B-/J	.	8b-J 8e-/	.	8e-J 8G/	.	.	.	.	.	.	.	.	.	.	.	.	.	.	.	.	.	8G/J	.	8e-\J	.	8g/J	.	8ee-\J	.
*	*	*	*	*	*	*	*	*	*	*	*	*	*	*	*	*	*	*	*	*	*	*	*	*	*	*	*	*Xtremolo	*	*	*
!	!	!	!	!	!	!	!	!	!	!	!	!	!	!	!	!LO:TX:t=P:problem:3 takty skreślone	!	!	!	!	!	!	!	!	!	!	!	!	!	!	!
4E-\	.	4B-/	.	4b- 4e-/	.	4e- 4G/	.	2r	.	.	.	2r	.	.	.	2r	.	.	.	2r	.	.	.	4G/	.	4e-\	.	4g/	.	4ee-\	.
4r	.	4r	.	4r	.	4r	.	.	.	.	.	.	.	.	.	.	.	.	.	.	.	.	.	4r	.	4r	.	4r	.	4r	.
!	!	!	!	!	!	!	!	!LO:LB:g=original	!	!	!	!	!	!	!	!	!	!	!	!	!	!	!	!	!	!	!	!	!	!	!
=40	=40	=40	=40	=40	=40	=40	=40	=40	=40	=40	=40	=40	=40	=40	=40	=40	=40	=40	=40	=40	=40	=40	=40	=40	=40	=40	=40	=40	=40	=40	=40
!LO:TX:a:t=2	!	!LO:TX:a:t=3	!	!LO:TX:a:t=3	!	!LO:TX:a:t=2	!	!	!	!	!	!	!	!	!	!	!	!	!	!	!	!	!	!	!LO:DY:rj	!	!	!LO:TX:a:i:t=Solo	!	!LO:TX:a:i:t=Solo	!
0r	.	0r	.	0r	.	0r	.	4E-\	mi-	et	.	4B-\	Mi-	me-	.	4g\	mi-	me-	.	4ee-\	mi-	me-	.	2E-/	p	2E-/	.	2g/	p	2ee-\	.
.	.	.	.	.	.	.	.	4E-\	-se-	in	.	4B-\	-se-	.	.	4g\	-se-	-mo-	.	4ee-\	-se-	-mo-	.	.	.	.	.	.	.	.	.
.	.	.	.	.	.	.	.	.	.	.	.	.	.	.	.	.	.	.	.	8qqdd-X/	.	.	.	.	.	.	.	.	.	8qqdd-X/	.
.	.	.	.	.	.	.	.	4A-\	-re-	si-	.	4e-\	-re-	.	.	4a-\	-re-	-ri-	.	4cc\	-re-	-ri-	.	2E-/	.	2E-/	.	2a-/	.	2cc\	.
.	.	.	.	.	.	.	.	4A-\	-re	-on	.	4e-\	-re	.	.	4a-\	-re	-a	.	4cc\	-re	-a	.	.	.	.	.	.	.	.	.
=41	=41	=41	=41	=41	=41	=41	=41	=41	=41	=41	=41	=41	=41	=41	=41	=41	=41	=41	=41	=41	=41	=41	=41	=41	=41	=41	=41	=41	=41	=41	=41
.	.	.	.	.	.	.	.	4G\	me-	ha-	.	4e-\	me-	-mo-	.	4g\	me-	e-	.	4b-\	me-	e-	.	2E-/	.	2E-/	.	4g/	.	4b-/	.
.	.	.	.	.	.	.	.	8G\L	-i	-bi-	.	4e-\	-i	.	.	8e-\L	-i	.	.	8g\L	-i	.	.	.	.	.	.	8e-/L	.	8g/L	.
.	.	.	.	.	.	.	.	8A-\J	.	.	.	.	.	.	.	8g\J	.	.	.	8b-\J	.	.	.	.	.	.	.	8g/J	.	8b-/J	.
!	!	!	!	!	!	!	!	!	!	!	!	!	!	!	!	!LO:LB:g=original	!	!	!	!	!	!	!	!	!	!	!	!	!	!	!
.	.	.	.	.	.	.	.	(<4B-\	De-	-ta-	.	(4e-\	De-	.	.	(4g\	De-	.	.	(4b-\	De-	.	.	2BB-/	.	2BB-/	.	4g/	.	4b-/	.
.	.	.	.	.	.	.	.	4BB-/)	.	-ti-	.	4d\)	.	-ri-	.	4f\)	.	.	.	4a-\)	.	.	.	.	.	.	.	4f/	.	4a-/	.
!	!	!	!	!	!	!	!	!	!	!	!	!	!	!	!	!	!	!	!	!LO:LB:g=original	!	!	!	!	!	!	!	!	!	!LO:LB:g=original	!
=42	=42	=42	=42	=42	=42	=42	=42	=42	=42	=42	=42	=42	=42	=42	=42	=42	=42	=42	=42	=42	=42	=42	=42	=42	=42	=42	=42	=42	=42	=42	=42
2r	.	1r	.	1r	.	2r	.	(<4BB-/	-us.	-o	.	2B-\	-us	-a	.	(4f\	-us	-ius	.	(4a-\	-us	-ius	.	2E-/	.	2E-/	.	4f/	.	4a-/	.
.	.	.	.	.	.	.	.	4E-\)	.	.	.	.	.	.	.	4e-\)	.	.	.	4g\)	.	.	.	.	.	.	.	4e-/	.	4g/	.
!LO:LB:g=original	!	!	!	!	!	!	!	!	!	!	!	!	!	!	!	!	!	!	!	!	!	!	!	!	!	!	!	!	!	!	!
4r	.	.	.	.	.	4r	.	2r	.	.	.	2r	.	.	.	2r	.	.	.	2r	.	.	.	2r	.	2r	.	2r	.	2r	.
8r	.	.	.	.	.	16r	.	.	.	.	.	.	.	.	.	.	.	.	.	.	.	.	.	.	.	.	.	.	.	.	.
!	!	!	!	!	!	!	!LO:DY:t=p&colon;	!	!	!	!	!	!	!	!	!	!	!	!	!	!	!	!	!	!	!	!	!	!	!	!
.	.	.	.	.	.	16ee-\LL|	p	.	.	.	.	.	.	.	.	.	.	.	.	.	.	.	.	.	.	.	.	.	.	.	.
8E-\	p	.	.	.	.	(16b-\	.	.	.	.	.	.	.	.	.	.	.	.	.	.	.	.	.	.	.	.	.	.	.	.	.
.	.	.	.	.	.	16g\JJ)	.	.	.	.	.	.	.	.	.	.	.	.	.	.	.	.	.	.	.	.	.	.	.	.	.
!	!	!	!	!	!	!	!	!	!	!	!	!LO:LB:g=original	!	!	!	!	!	!	!	!	!	!	!	!	!	!	!	!	!	!	!
=43	=43	=43	=43	=43	=43	=43	=43	=43	=43	=43	=43	=43	=43	=43	=43	=43	=43	=43	=43	=43	=43	=43	=43	=43	=43	=43	=43	=43	=43	=43	=43
.	.	.	.	.	.	16qqen/LL	.	.	.	.	.	.	.	.	.	.	.	.	.	.	.	.	.	.	.	.	.	.	.	.	.
.	.	.	.	.	.	16qqg/JJ	.	.	.	.	.	.	.	.	.	.	.	.	.	.	.	.	.	.	.	.	.	.	.	.	.
!	!	!	!	!	!	!LO:TX:t=P:problem:mixed beam	!	!	!	!	!	!	!	!	!	!	!	!	!	!	!	!	!	!	!	!	!	!	!	!	!
4A-\	.	8r	.	8r	.	8f/L	.	2r	.	.	.	2r	.	.	.	2r	.	.	.	2r	.	.	.	2r	.	2r	.	2r	.	2r	f
.	.	8e-\L	p	8a-/L	.	8cc\	.	.	.	.	.	.	.	.	.	.	.	.	.	.	.	.	.	.	.	.	.	.	.	.	.
8r	.	8e-\	.	8a-/	.	8cc\	.	.	.	.	.	.	.	.	.	.	.	.	.	.	.	.	.	.	.	.	.	.	.	.	.
8A-\	.	8e-\J	.	8a-/J	.	8cc\J	.	.	.	.	.	.	.	.	.	.	.	.	.	.	.	.	.	.	.	.	.	.	.	.	.
!	!	!LO:LB:g=original	!	!	!	!	!LO:DY:t=f&colon;	!	!	!	!	!	!	!	!	!	!	!	!	!	!	!	!	!	!	!	!	!	!	!	!
4G\	f	4e-\	f	4g/	f	4b-\	f	4G\	mi-	sur-	.	4e-\	Mi-	sur-	.	4g\	mi-	sur-	.	4b-\	mi-	Sur-	.	4r	.	4r	.	4gg\	f	4bb-\	.
4A-\	.	4a-\	.	8a-/L	.	16cc\LL|	.	8A-\L	-se-	-re-	.	8c\L	-se-	-re-	.	4a-\	-se-	-re-	.	8cc\L	-se-	-re-	.	4f\	.	4a-\	.	8aa-\L	.	16ccc\LL	.
.	.	.	.	.	.	(16a-\	.	.	.	.	.	.	.	.	.	.	.	.	.	.	.	.	.	.	.	.	.	.	.	16aa-\	.
.	.	.	.	16B-/L	.	16g\	.	8F\J	.	-xit	.	8A-\J	.	-xit	.	.	.	.	.	8ff\J	.	-xit	.	.	.	.	.	8ff\J	.	16gg\	.
.	.	.	.	16A-/JJ	.	16f\JJ)	.	.	.	.	.	.	.	.	.	.	.	.	.	.	.	.	.	.	.	.	.	.	.	16ff\JJ	.
=44	=44	=44	=44	=44	=44	=44	=44	=44	=44	=44	=44	=44	=44	=44	=44	=44	=44	=44	=44	=44	=44	=44	=44	=44	=44	=44	=44	=44	=44	=44	=44
*tremolo	*	*	*	*	*	*	*	*	*	*	*	*	*	*	*	*	*	*	*	*	*	*	*	*	*	*	*	*	*	*	*
8B-\L	.	16r	.	16r	.	16r	.	4B-\	-re-	a	.	4B-\	-re-	a	.	4g\	-re-	-xit	.	4ee-\	-re-	a	.	2e-\	.	2g\	.	2ee-\	.	2gg\	.
!	!	!LO:TX:t=P:problem:mixed beam	!	!	!	!	!	!	!	!	!	!	!	!	!	!	!	!	!	!	!	!	!	!	!	!	!	!	!	!	!
.	.	16b-\LL	.	16e-/LL|	.	16g/LL|	.	.	.	.	.	.	.	.	.	.	.	.	.	.	.	.	.	.	.	.	.	.	.	.	.
8B-\	.	16g\	.	(16e-/	.	(16b-/	.	.	.	.	.	.	.	.	.	.	.	.	.	.	.	.	.	.	.	.	.	.	.	.	.
.	.	16B-/JJ	.	16G/JJ)	.	16e-/JJ)	.	.	.	.	.	.	.	.	.	.	.	.	.	.	.	.	.	.	.	.	.	.	.	.	.
8B-\	.	16r	.	16r	.	16r	.	4B-\	-re	mor-	.	4B-\	-re	mor-	.	4g\	-re	amor	.	4ee-\	-re	mor-	.	.	.	.	.	.	.	.	.
!	!	!LO:TX:t=P:problem:mixed beam	!	!	!	!LO:LB:g=original	!	!	!	!	!	!	!	!	!	!	!	!	!	!	!	!	!	!	!	!	!	!	!	!	!
.	.	16b-\LL	.	16e-/LL|	.	16g/LL|	.	.	.	.	.	.	.	.	.	.	.	.	.	.	.	.	.	.	.	.	.	.	.	.	.
8B-\J	.	16g\	.	(16e-/	.	(16b-/	.	.	.	.	.	.	.	.	.	.	.	.	.	.	.	.	.	.	.	.	.	.	.	.	.
.	.	16B-/JJ	.	16G/JJ)	.	16e-/JJ)	.	.	.	.	.	.	.	.	.	.	.	.	.	.	.	.	.	.	.	.	.	.	.	.	.
8BB-/L	.	16r	.	16r	.	16r	.	2BB-/	me-	-tu-	.	2B-\	me-	-tu-	.	2f\	me-	tu-	.	2dd\	me-	-tu-	.	2B-/	.	2f\	.	2b-\	.	2ff\	.
!	!	!LO:TX:t=P:problem:mixed beam	!	!	!	!	!	!	!	!	!	!	!	!	!	!	!	!	!	!	!	!	!	!	!	!	!	!	!	!	!
.	.	16b-\LL	.	16d/LL|	.	16f/LL|	.	.	.	.	.	.	.	.	.	.	.	.	.	.	.	.	.	.	.	.	.	.	.	.	.
8BB-/	.	16f\	.	(16d/	.	(16a-/	.	.	.	.	.	.	.	.	.	.	.	.	.	.	.	.	.	.	.	.	.	.	.	.	.
.	.	16B-/JJ	.	16A-/JJ)	.	16d/JJ)	.	.	.	.	.	.	.	.	.	.	.	.	.	.	.	.	.	.	.	.	.	.	.	.	.
8BB-/	.	16r	.	16r	.	16r	.	.	.	.	.	.	.	.	.	.	.	.	.	.	.	.	.	.	.	.	.	.	.	.	.
!	!	!LO:TX:t=P:problem:mixed beam	!	!	!	!	!	!	!	!	!	!	!	!	!	!	!	!	!	!	!	!	!	!	!	!	!	!	!	!	!
.	.	16b-\LL	.	16d/LL|	.	16f/LL|	.	.	.	.	.	.	.	.	.	.	.	.	.	.	.	.	.	.	.	.	.	.	.	.	.
8BB-/J	.	16f\	.	(16d/	.	(16a-/	.	.	.	.	.	.	.	.	.	.	.	.	.	.	.	.	.	.	.	.	.	.	.	.	.
.	.	16B-/JJ	.	16A-/JJ)	.	16d/JJ)	.	.	.	.	.	.	.	.	.	.	.	.	.	.	.	.	.	.	.	.	.	.	.	.	.
*Xtremolo	*	*	*	*	*	*	*	*	*	*	*	*	*	*	*	*	*	*	*	*	*	*	*	*	*	*	*	*	*	*	*
!	!	!	!	!	!	!	!	!	!	!	!	!	!	!	!	!	!	!	!	!	!	!	!	!	!	!LO:LB:g=original	!	!	!	!	!
=45	=45	=45	=45	=45	=45	=45	=45	=45	=45	=45	=45	=45	=45	=45	=45	=45	=45	=45	=45	=45	=45	=45	=45	=45	=45	=45	=45	=45	=45	=45	=45
8E-\L	.	8B-/L	.	8b-L 8e-/	.	8e-L 8G/	.	2E-\	-i	-is	.	2B-\	-i	-is	.	2g\	-i	-is	.	2ee-\	-i	-is .	.	8G/L	.	8e-\L	.	8g/L	.	8ee-\L	.
8E-\	.	8B-/	.	8b- 8e-/	.	8e- 8G/	.	.	.	.	.	.	.	.	.	.	.	.	.	.	.	.	.	8G/	.	8e-\	.	8g/	.	8ee-\	.
8E-\	.	8B-/	.	8b- 8e-/	.	8e- 8G/	.	.	.	.	.	.	.	.	.	.	.	.	.	.	.	.	.	8G/	.	8e-\	.	8g/	.	8ee-\	.
8E-\J	.	8B-/J	.	8b-J 8e-/	.	8e-J 8G/	.	.	.	.	.	.	.	.	.	.	.	.	.	.	.	.	.	8G/J	.	8e-\J	.	8g/J	.	8ee-\J	.
!	!	!	!	!	!	!LO:TX:b:i:t=Volti Subito	!	!	!	!	!	!	!	!	!	!	!	!	!	!	!	!	!	!	!	!	!	!	!	!	!
2E-\	.	2B-/	.	2b- 2e-/	.	2e- 2G/	.	2r	.	.	.	2r	.	.	.	2r	.	.	.	2r	.	.	.	2G/	.	2e-\	.	2g/	.	2ee-\	.
==	==	==	==	==	==	==	==	==	==	==	==	==	==	==	==	==	==	==	==	==	==	==	==	==	==	==	==	==	==	==	==
*-	*-	*-	*-	*-	*-	*-	*-	*-	*-	*-	*-	*-	*-	*-	*-	*-	*-	*-	*-	*-	*-	*-	*-	*-	*-	*-	*-	*-	*-	*-	*-
!!!system-decoration: [(g1)][(g2)][(g3)][(g4)]<s12>
!!!RDF**kern: < = below
!!!RDF**kern: | = vertical stroke
!!!ENC: Andrzej Borzym
!!!END: 2020-10-31
!!!ENC: Andrzej Kubiczek
!!!END: 2022-04-11
!!!YEC: Copyright 2022 Narodowy Instytut Fryderyka Chopina (https://polishscores.org)
!!!YEM: License CC-BY-4.0 (https://creativecommons.org/licenses/by/4.0)
